; generated by PrusaSlicer 2.6.1+linux-x64-GTK3 on 2023-11-17 at 20:16:42 UTC


;
;
; 

; external perimeters extrusion width = 0.45mm
; perimeters extrusion width = 0.45mm
; infill extrusion width = 0.45mm
; solid infill extrusion width = 0.45mm
; top infill extrusion width = 0.40mm
; first layer extrusion width = 0.42mm

M73 P0 R7
M201 X9000 Y9000 Z500 E10000 ; sets maximum accelerations, mm/sec^2
M203 X500 Y500 Z12 E120 ; sets maximum feedrates, mm / sec
M204 S2000 T1500 ; sets acceleration (S) and retract acceleration (R), mm/sec^2
M205 X10.00 Y10.00 Z0.20 E4.50 ; sets the jerk limits, mm/sec
M205 S0 T0 ; sets the minimum extruding and travel feed rate, mm/sec
;TYPE:Custom
M862.3 P "MK2.5S" ; printer model check
M862.1 P0.4 ; nozzle diameter check
M115 U3.13.2 ; tell printer latest fw version
G90 ; use absolute coordinates
M83 ; extruder relative mode
M104 S260 ; set extruder temp
M140 S105 ; set bed temp
M190 S105 ; wait for bed temp
M109 S260 ; wait for extruder temp
G28 W ; home all without mesh bed level
G80 ; mesh bed leveling

G1 Z0.2 F720
G1 Y-3 F1000 ; go outside print area
G92 E0
G1 X60 E9 F1000 ; intro line
G1 X100 E12.5 F1000 ; intro line

G92 E0
G21 ; set units to millimeters
G90 ; use absolute coordinates
M83 ; use relative distances for extrusion
M900 K0.04 ; Filament gcode LA 1.5
M900 K20 ; Filament gcode LA 1.0

M107
;LAYER_CHANGE
;Z:0.2
;HEIGHT:0.2
;BEFORE_LAYER_CHANGE
G92 E0.0
;0.2


M73 P0 R6
G1 E-.8 F2100
M73 P1 R6
G1 Z.4 F720
;AFTER_LAYER_CHANGE
;0.2
G1 X73.788 Y88.045 F10800
G1 Z.2 F720
G1 E.8 F2100
M204 S800
;TYPE:Skirt/Brim
;WIDTH:0.42
G1 F1200
G1 X74.06 Y87.817 E.01113
G1 X75 Y87.623 E.03009
G1 X175 Y87.623 E3.13543
G1 X176.307 Y88.015 E.04278
M73 P2 R6
G1 X177.183 Y89.06 E.04275
G1 X177.377 Y90 E.03009
G1 X177.377 Y120 E.94063
G1 X176.985 Y121.307 E.04278
M73 P3 R6
G1 X175.94 Y122.183 E.04275
G1 X175 Y122.377 E.03009
G1 X75 Y122.377 E3.13543
G1 X73.693 Y121.985 E.04278
M73 P4 R6
G1 X72.817 Y120.94 E.04275
G1 X72.623 Y120 E.03009
G1 X72.623 Y90 E.94063
G1 X73.015 Y88.693 E.04278
G1 X73.742 Y88.084 E.02974
M204 S1000
; printing object one_layer_100x30.stl id:0 copy 0
;WIPE_START
G1 F8640
G1 X74.06 Y87.817 E-.09588
G1 X75 Y87.623 E-.22162
G1 X77.09 Y87.623 E-.4825
;WIPE_END
G1 Z.6 F720
G1 X174.213 Y119.213 F10800
G1 Z.2 F720
M73 P5 R6
G1 E.8 F2100
M204 S800
;TYPE:Perimeter
;WIDTH:0.419999
G1 F1200
G1 X75.787 Y119.213 E3.08607
G1 X75.787 Y90.787 E.89128
M73 P6 R6
G1 X174.213 Y90.787 E3.08607
G1 X174.213 Y119.153 E.88939
M204 S1000
M73 P7 R6
G1 X174.59 Y119.59 F10800
M204 S800
;TYPE:External perimeter
M73 P8 R6
G1 F1200
G1 X75.41 Y119.59 E3.10971
G1 X75.41 Y90.41 E.91492
M73 P9 R6
G1 X174.59 Y90.41 E3.10971
G1 X174.59 Y119.53 E.91304
M204 S1000
M73 P10 R6
G1 X174.192 Y119.552 F10800
;WIPE_START
M73 P11 R6
G1 F8640
G1 X171.125 Y119.532 E-.8
;WIPE_END
G1 Z.6 F720
G1 X174.043 Y91.722 F10800
G1 Z.2 F720
G1 E.8 F2100
M204 S800
;TYPE:Solid infill
;WIDTH:0.421187
G1 F1200
G1 X173.448 Y91.126 E.02649
G1 X172.913 Y91.126 E.01683
G1 X173.874 Y92.087 E.04275
G1 X173.874 Y92.622 E.01683
G1 X172.378 Y91.126 E.06654
G1 X171.843 Y91.126 E.01683
G1 X173.874 Y93.157 E.09034
G1 X173.874 Y93.692 E.01683
G1 X171.308 Y91.126 E.11414
G1 X170.773 Y91.126 E.01683
G1 X173.874 Y94.227 E.13794
G1 X173.874 Y94.762 E.01683
G1 X170.238 Y91.126 E.16173
G1 X169.703 Y91.126 E.01683
G1 X173.874 Y95.297 E.18553
G1 X173.874 Y95.831 E.0168
G1 X169.169 Y91.126 E.20928
G1 X168.634 Y91.126 E.01683
G1 X173.874 Y96.366 E.23308
G1 X173.874 Y96.901 E.01683
G1 X168.099 Y91.126 E.25688
G1 X167.564 Y91.126 E.01683
M73 P12 R6
G1 X173.874 Y97.436 E.28068
G1 X173.874 Y97.971 E.01683
G1 X167.029 Y91.126 E.30447
G1 X166.494 Y91.126 E.01683
G1 X173.874 Y98.506 E.32827
G1 X173.874 Y99.041 E.01683
G1 X165.959 Y91.126 E.35207
G1 X165.424 Y91.126 E.01683
G1 X173.874 Y99.576 E.37587
G1 X173.874 Y100.111 E.01683
G1 X164.889 Y91.126 E.39966
G1 X164.354 Y91.126 E.01683
G1 X173.874 Y100.646 E.42346
G1 X173.874 Y101.181 E.01683
M73 P13 R6
G1 X163.819 Y91.126 E.44726
G1 X163.284 Y91.126 E.01683
G1 X173.874 Y101.716 E.47106
G1 X173.874 Y102.251 E.01683
G1 X162.749 Y91.126 E.49485
G1 X162.214 Y91.126 E.01683
G1 X173.874 Y102.786 E.51865
G1 X173.874 Y103.321 E.01683
G1 X161.679 Y91.126 E.54245
G1 X161.144 Y91.126 E.01683
M73 P14 R6
G1 X173.874 Y103.856 E.56625
G1 X173.874 Y104.391 E.01683
G1 X160.609 Y91.126 E.59004
G1 X160.074 Y91.126 E.01683
G1 X173.874 Y104.926 E.61384
G1 X173.874 Y105.461 E.01683
M73 P14 R5
G1 X159.539 Y91.126 E.63764
G1 X159.004 Y91.126 E.01683
G1 X173.874 Y105.996 E.66144
G1 X173.874 Y106.53 E.0168
M73 P15 R5
G1 X158.47 Y91.126 E.68519
G1 X157.935 Y91.126 E.01683
G1 X173.874 Y107.065 E.70899
G1 X173.874 Y107.6 E.01683
G1 X157.4 Y91.126 E.73278
G1 X156.865 Y91.126 E.01683
M73 P16 R5
G1 X173.874 Y108.135 E.75658
G1 X173.874 Y108.67 E.01683
G1 X156.33 Y91.126 E.78038
G1 X155.795 Y91.126 E.01683
G1 X173.874 Y109.205 E.80418
G1 X173.874 Y109.74 E.01683
G1 X155.26 Y91.126 E.82797
G1 X154.725 Y91.126 E.01683
M73 P17 R5
G1 X173.874 Y110.275 E.85177
G1 X173.874 Y110.81 E.01683
G1 X154.19 Y91.126 E.87557
G1 X153.655 Y91.126 E.01683
G1 X173.874 Y111.345 E.89937
G1 X173.874 Y111.88 E.01683
M73 P18 R5
G1 X153.12 Y91.126 E.92316
G1 X152.585 Y91.126 E.01683
G1 X173.874 Y112.415 E.94696
G1 X173.874 Y112.95 E.01683
M73 P19 R5
G1 X152.05 Y91.126 E.97076
G1 X151.515 Y91.126 E.01683
G1 X173.874 Y113.485 E.99456
G1 X173.874 Y114.02 E.01683
G1 X150.98 Y91.126 E1.01835
G1 X150.445 Y91.126 E.01683
M73 P20 R5
G1 X173.874 Y114.555 E1.04215
G1 X173.874 Y115.09 E.01683
G1 X149.91 Y91.126 E1.06595
G1 X149.375 Y91.126 E.01683
G1 X173.874 Y115.625 E1.08975
G1 X173.874 Y116.16 E.01683
M73 P21 R5
G1 X148.84 Y91.126 E1.11354
G1 X148.305 Y91.126 E.01683
G1 X173.874 Y116.695 E1.13734
G1 X173.874 Y117.229 E.0168
M73 P22 R5
G1 X147.771 Y91.126 E1.1611
G1 X147.236 Y91.126 E.01683
G1 X173.874 Y117.764 E1.18489
G1 X173.874 Y118.299 E.01683
M73 P23 R5
G1 X146.701 Y91.126 E1.20869
G1 X146.166 Y91.126 E.01683
G1 X173.874 Y118.834 E1.23249
G1 X173.874 Y118.874 E.00126
M73 P24 R5
G1 X173.378 Y118.874 E.0156
G1 X145.631 Y91.126 E1.23424
G1 X145.096 Y91.126 E.01683
G1 X172.843 Y118.874 E1.23424
G1 X172.308 Y118.874 E.01683
M73 P25 R5
G1 X144.561 Y91.126 E1.23424
G1 X144.026 Y91.126 E.01683
G1 X171.773 Y118.874 E1.23424
G1 X171.238 Y118.874 E.01683
G1 X143.491 Y91.126 E1.23424
M73 P26 R5
G1 X142.956 Y91.126 E.01683
G1 X170.703 Y118.874 E1.23424
G1 X170.168 Y118.874 E.01683
G1 X142.421 Y91.126 E1.23424
G1 X141.886 Y91.126 E.01683
M73 P27 R5
G1 X169.633 Y118.874 E1.23424
G1 X169.098 Y118.874 E.01683
G1 X141.351 Y91.126 E1.23424
G1 X140.816 Y91.126 E.01683
M73 P28 R5
G1 X168.563 Y118.874 E1.23424
G1 X168.028 Y118.874 E.01683
M73 P28 R4
G1 X140.281 Y91.126 E1.23424
G1 X139.746 Y91.126 E.01683
M73 P29 R4
G1 X167.493 Y118.874 E1.23424
G1 X166.958 Y118.874 E.01683
G1 X139.211 Y91.126 E1.23424
G1 X138.676 Y91.126 E.01683
M73 P30 R4
G1 X166.423 Y118.874 E1.23424
G1 X165.889 Y118.874 E.0168
G1 X138.141 Y91.126 E1.23427
G1 X137.606 Y91.126 E.01683
M73 P31 R4
G1 X165.354 Y118.874 E1.23427
G1 X164.819 Y118.874 E.01683
G1 X137.072 Y91.126 E1.23424
G1 X136.537 Y91.126 E.01683
M73 P32 R4
G1 X164.284 Y118.874 E1.23424
G1 X163.749 Y118.874 E.01683
G1 X136.002 Y91.126 E1.23424
G1 X135.467 Y91.126 E.01683
M73 P33 R4
G1 X163.214 Y118.874 E1.23424
G1 X162.679 Y118.874 E.01683
G1 X134.932 Y91.126 E1.23424
G1 X134.397 Y91.126 E.01683
M73 P34 R4
G1 X162.144 Y118.874 E1.23424
G1 X161.609 Y118.874 E.01683
G1 X133.862 Y91.126 E1.23424
G1 X133.327 Y91.126 E.01683
M73 P35 R4
G1 X161.074 Y118.874 E1.23424
G1 X160.539 Y118.874 E.01683
G1 X132.792 Y91.126 E1.23424
G1 X132.257 Y91.126 E.01683
G1 X160.004 Y118.874 E1.23424
G1 X159.469 Y118.874 E.01683
M73 P36 R4
G1 X131.722 Y91.126 E1.23424
G1 X131.187 Y91.126 E.01683
G1 X158.934 Y118.874 E1.23424
G1 X158.399 Y118.874 E.01683
M73 P37 R4
G1 X130.652 Y91.126 E1.23424
G1 X130.117 Y91.126 E.01683
G1 X157.864 Y118.874 E1.23424
G1 X157.329 Y118.874 E.01683
M73 P38 R4
G1 X129.582 Y91.126 E1.23424
G1 X129.047 Y91.126 E.01683
G1 X156.794 Y118.874 E1.23424
G1 X156.259 Y118.874 E.01683
M73 P39 R4
G1 X128.512 Y91.126 E1.23424
G1 X127.977 Y91.126 E.01683
G1 X155.724 Y118.874 E1.23424
G1 X155.19 Y118.874 E.0168
M73 P40 R4
G1 X127.442 Y91.126 E1.23427
G1 X126.907 Y91.126 E.01683
G1 X154.655 Y118.874 E1.23427
G1 X154.12 Y118.874 E.01683
M73 P41 R4
G1 X126.373 Y91.126 E1.23424
G1 X125.838 Y91.126 E.01683
G1 X153.585 Y118.874 E1.23424
G1 X153.05 Y118.874 E.01683
M73 P42 R4
G1 X125.303 Y91.126 E1.23424
G1 X124.768 Y91.126 E.01683
G1 X152.515 Y118.874 E1.23424
G1 X151.98 Y118.874 E.01683
M73 P43 R4
G1 X124.233 Y91.126 E1.23424
M73 P43 R3
G1 X123.698 Y91.126 E.01683
G1 X151.445 Y118.874 E1.23424
G1 X150.91 Y118.874 E.01683
M73 P44 R3
G1 X123.163 Y91.126 E1.23424
G1 X122.628 Y91.126 E.01683
G1 X150.375 Y118.874 E1.23424
G1 X149.84 Y118.874 E.01683
G1 X122.093 Y91.126 E1.23424
G1 X121.558 Y91.126 E.01683
M73 P45 R3
G1 X149.305 Y118.874 E1.23424
G1 X148.77 Y118.874 E.01683
G1 X121.023 Y91.126 E1.23424
G1 X120.488 Y91.126 E.01683
M73 P46 R3
G1 X148.235 Y118.874 E1.23424
G1 X147.7 Y118.874 E.01683
G1 X119.953 Y91.126 E1.23424
G1 X119.418 Y91.126 E.01683
M73 P47 R3
G1 X147.165 Y118.874 E1.23424
G1 X146.63 Y118.874 E.01683
G1 X118.883 Y91.126 E1.23424
G1 X118.348 Y91.126 E.01683
M73 P48 R3
G1 X146.095 Y118.874 E1.23424
G1 X145.56 Y118.874 E.01683
G1 X117.813 Y91.126 E1.23424
G1 X117.278 Y91.126 E.01683
M73 P49 R3
G1 X145.025 Y118.874 E1.23424
G1 X144.491 Y118.874 E.0168
G1 X116.743 Y91.126 E1.23427
G1 X116.208 Y91.126 E.01683
M73 P50 R3
G1 X143.956 Y118.874 E1.23427
G1 X143.421 Y118.874 E.01683
G1 X115.674 Y91.126 E1.23424
G1 X115.139 Y91.126 E.01683
M73 P51 R3
G1 X142.886 Y118.874 E1.23424
G1 X142.351 Y118.874 E.01683
G1 X114.604 Y91.126 E1.23424
G1 X114.069 Y91.126 E.01683
M73 P52 R3
G1 X141.816 Y118.874 E1.23424
G1 X141.281 Y118.874 E.01683
G1 X113.534 Y91.126 E1.23424
G1 X112.999 Y91.126 E.01683
M73 P53 R3
G1 X140.746 Y118.874 E1.23424
G1 X140.211 Y118.874 E.01683
G1 X112.464 Y91.126 E1.23424
G1 X111.929 Y91.126 E.01683
G1 X139.676 Y118.874 E1.23424
M73 P54 R3
G1 X139.141 Y118.874 E.01683
G1 X111.394 Y91.126 E1.23424
G1 X110.859 Y91.126 E.01683
G1 X138.606 Y118.874 E1.23424
G1 X138.071 Y118.874 E.01683
M73 P55 R3
G1 X110.324 Y91.126 E1.23424
G1 X109.789 Y91.126 E.01683
G1 X137.536 Y118.874 E1.23424
G1 X137.001 Y118.874 E.01683
M73 P56 R3
G1 X109.254 Y91.126 E1.23424
G1 X108.719 Y91.126 E.01683
G1 X136.466 Y118.874 E1.23424
G1 X135.931 Y118.874 E.01683
M73 P57 R3
G1 X108.184 Y91.126 E1.23424
G1 X107.649 Y91.126 E.01683
M73 P57 R2
G1 X135.396 Y118.874 E1.23424
G1 X134.861 Y118.874 E.01683
M73 P58 R2
G1 X107.114 Y91.126 E1.23424
G1 X106.579 Y91.126 E.01683
G1 X134.326 Y118.874 E1.23424
G1 X133.791 Y118.874 E.01683
M73 P59 R2
G1 X106.044 Y91.126 E1.23424
G1 X105.509 Y91.126 E.01683
G1 X133.257 Y118.874 E1.23427
G1 X132.722 Y118.874 E.01683
M73 P60 R2
G1 X104.974 Y91.126 E1.23427
G1 X104.44 Y91.126 E.0168
G1 X132.187 Y118.874 E1.23424
G1 X131.652 Y118.874 E.01683
M73 P61 R2
G1 X103.905 Y91.126 E1.23424
G1 X103.37 Y91.126 E.01683
G1 X131.117 Y118.874 E1.23424
G1 X130.582 Y118.874 E.01683
M73 P62 R2
G1 X102.835 Y91.126 E1.23424
G1 X102.3 Y91.126 E.01683
G1 X130.047 Y118.874 E1.23424
G1 X129.512 Y118.874 E.01683
M73 P63 R2
G1 X101.765 Y91.126 E1.23424
G1 X101.23 Y91.126 E.01683
G1 X128.977 Y118.874 E1.23424
G1 X128.442 Y118.874 E.01683
G1 X100.695 Y91.126 E1.23424
G1 X100.16 Y91.126 E.01683
M73 P64 R2
G1 X127.907 Y118.874 E1.23424
G1 X127.372 Y118.874 E.01683
G1 X99.625 Y91.126 E1.23424
G1 X99.09 Y91.126 E.01683
M73 P65 R2
G1 X126.837 Y118.874 E1.23424
G1 X126.302 Y118.874 E.01683
G1 X98.555 Y91.126 E1.23424
G1 X98.02 Y91.126 E.01683
M73 P66 R2
G1 X125.767 Y118.874 E1.23424
G1 X125.232 Y118.874 E.01683
G1 X97.485 Y91.126 E1.23424
G1 X96.95 Y91.126 E.01683
M73 P67 R2
G1 X124.697 Y118.874 E1.23424
G1 X124.162 Y118.874 E.01683
G1 X96.415 Y91.126 E1.23424
G1 X95.88 Y91.126 E.01683
M73 P68 R2
G1 X123.627 Y118.874 E1.23424
G1 X123.092 Y118.874 E.01683
G1 X95.345 Y91.126 E1.23424
G1 X94.81 Y91.126 E.01683
M73 P69 R2
G1 X122.558 Y118.874 E1.23427
G1 X122.023 Y118.874 E.01683
G1 X94.275 Y91.126 E1.23427
G1 X93.741 Y91.126 E.0168
M73 P70 R2
G1 X121.488 Y118.874 E1.23424
G1 X120.953 Y118.874 E.01683
G1 X93.206 Y91.126 E1.23424
G1 X92.671 Y91.126 E.01683
M73 P71 R2
G1 X120.418 Y118.874 E1.23424
G1 X119.883 Y118.874 E.01683
G1 X92.136 Y91.126 E1.23424
G1 X91.601 Y91.126 E.01683
M73 P72 R1
G1 X119.348 Y118.874 E1.23424
G1 X118.813 Y118.874 E.01683
G1 X91.066 Y91.126 E1.23424
G1 X90.531 Y91.126 E.01683
G1 X118.278 Y118.874 E1.23424
G1 X117.743 Y118.874 E.01683
M73 P73 R1
G1 X89.996 Y91.126 E1.23424
G1 X89.461 Y91.126 E.01683
G1 X117.208 Y118.874 E1.23424
G1 X116.673 Y118.874 E.01683
M73 P74 R1
G1 X88.926 Y91.126 E1.23424
G1 X88.391 Y91.126 E.01683
G1 X116.138 Y118.874 E1.23424
G1 X115.603 Y118.874 E.01683
M73 P75 R1
G1 X87.856 Y91.126 E1.23424
G1 X87.321 Y91.126 E.01683
G1 X115.068 Y118.874 E1.23424
G1 X114.533 Y118.874 E.01683
M73 P76 R1
G1 X86.786 Y91.126 E1.23424
G1 X86.251 Y91.126 E.01683
G1 X113.998 Y118.874 E1.23424
G1 X113.463 Y118.874 E.01683
M73 P77 R1
G1 X85.716 Y91.126 E1.23424
G1 X85.181 Y91.126 E.01683
G1 X112.928 Y118.874 E1.23424
G1 X112.393 Y118.874 E.01683
M73 P78 R1
G1 X84.646 Y91.126 E1.23424
G1 X84.111 Y91.126 E.01683
G1 X111.859 Y118.874 E1.23427
G1 X111.324 Y118.874 E.01683
M73 P79 R1
G1 X83.576 Y91.126 E1.23427
G1 X83.042 Y91.126 E.0168
G1 X110.789 Y118.874 E1.23424
G1 X110.254 Y118.874 E.01683
M73 P80 R1
G1 X82.507 Y91.126 E1.23424
G1 X81.972 Y91.126 E.01683
G1 X109.719 Y118.874 E1.23424
G1 X109.184 Y118.874 E.01683
M73 P81 R1
G1 X81.437 Y91.126 E1.23424
G1 X80.902 Y91.126 E.01683
G1 X108.649 Y118.874 E1.23424
G1 X108.114 Y118.874 E.01683
G1 X80.367 Y91.126 E1.23424
M73 P82 R1
G1 X79.832 Y91.126 E.01683
G1 X107.579 Y118.874 E1.23424
G1 X107.044 Y118.874 E.01683
G1 X79.297 Y91.126 E1.23424
G1 X78.762 Y91.126 E.01683
M73 P83 R1
G1 X106.509 Y118.874 E1.23424
G1 X105.974 Y118.874 E.01683
G1 X78.227 Y91.126 E1.23424
G1 X77.692 Y91.126 E.01683
M73 P84 R1
G1 X105.439 Y118.874 E1.23424
G1 X104.904 Y118.874 E.01683
G1 X77.157 Y91.126 E1.23424
G1 X76.622 Y91.126 E.01683
M73 P85 R1
G1 X104.369 Y118.874 E1.23424
G1 X103.834 Y118.874 E.01683
G1 X76.126 Y91.166 E1.23249
G1 X76.126 Y91.701 E.01683
M73 P86 R0
G1 X103.299 Y118.874 E1.20869
G1 X102.764 Y118.874 E.01683
G1 X76.126 Y92.236 E1.18489
G1 X76.126 Y92.771 E.01683
M73 P87 R0
G1 X102.229 Y118.874 E1.1611
G1 X101.694 Y118.874 E.01683
G1 X76.126 Y93.306 E1.1373
G1 X76.126 Y93.84 E.0168
M73 P88 R0
G1 X101.16 Y118.874 E1.11354
G1 X100.625 Y118.874 E.01683
G1 X76.126 Y94.375 E1.08975
G1 X76.126 Y94.91 E.01683
G1 X100.09 Y118.874 E1.06595
G1 X99.555 Y118.874 E.01683
M73 P89 R0
G1 X76.126 Y95.445 E1.04215
G1 X76.126 Y95.98 E.01683
G1 X99.02 Y118.874 E1.01835
G1 X98.485 Y118.874 E.01683
M73 P90 R0
G1 X76.126 Y96.515 E.99456
G1 X76.126 Y97.05 E.01683
G1 X97.95 Y118.874 E.97076
G1 X97.415 Y118.874 E.01683
G1 X76.126 Y97.585 E.94696
G1 X76.126 Y98.12 E.01683
M73 P91 R0
G1 X96.88 Y118.874 E.92316
G1 X96.345 Y118.874 E.01683
G1 X76.126 Y98.655 E.89937
G1 X76.126 Y99.19 E.01683
G1 X95.81 Y118.874 E.87557
G1 X95.275 Y118.874 E.01683
M73 P92 R0
G1 X76.126 Y99.725 E.85177
G1 X76.126 Y100.26 E.01683
G1 X94.74 Y118.874 E.82797
G1 X94.205 Y118.874 E.01683
G1 X76.126 Y100.795 E.80418
G1 X76.126 Y101.33 E.01683
M73 P93 R0
G1 X93.67 Y118.874 E.78038
G1 X93.135 Y118.874 E.01683
G1 X76.126 Y101.865 E.75658
G1 X76.126 Y102.4 E.01683
G1 X92.6 Y118.874 E.73278
G1 X92.065 Y118.874 E.01683
M73 P94 R0
G1 X76.126 Y102.935 E.70899
G1 X76.126 Y103.47 E.01683
G1 X91.53 Y118.874 E.68519
G1 X90.995 Y118.874 E.01683
G1 X76.126 Y104.005 E.66139
G1 X76.126 Y104.539 E.0168
G1 X90.461 Y118.874 E.63764
G1 X89.926 Y118.874 E.01683
M73 P95 R0
G1 X76.126 Y105.074 E.61384
G1 X76.126 Y105.609 E.01683
G1 X89.391 Y118.874 E.59004
G1 X88.856 Y118.874 E.01683
G1 X76.126 Y106.144 E.56625
G1 X76.126 Y106.679 E.01683
G1 X88.321 Y118.874 E.54245
G1 X87.786 Y118.874 E.01683
