; generated by PrusaSlicer 2.6.1+linux-x64-GTK3 on 2023-11-17 at 20:14:58 UTC


;
;

;
;

;
;
; 

; external perimeters extrusion width = 0.45mm
; perimeters extrusion width = 0.45mm
; infill extrusion width = 0.45mm
; solid infill extrusion width = 0.45mm
; top infill extrusion width = 0.40mm
; first layer extrusion width = 0.42mm

M73 P0 R1
M201 X2500 Y2500 Z400 E5000 ; sets maximum accelerations, mm/sec^2
M203 X180 Y180 Z12 E80 ; sets maximum feedrates, mm / sec
M204 P2000 R1250 T2500 ; sets acceleration (P, T) and retract acceleration (R), mm/sec^2
M205 X8.00 Y8.00 Z2.00 E10.00 ; sets the jerk limits, mm/sec
M205 S0 T0 ; sets the minimum extruding and travel feed rate, mm/sec
;TYPE:Custom
M862.3 P "MINI" ; printer model check
G90 ; use absolute coordinates
M83 ; extruder relative mode
M104 S170 ; set extruder temp for bed leveling
M140 S85 ; set bed temp
M109 R170 ; wait for bed leveling temp
M190 S85 ; wait for bed temp
M204 T1250 ; set travel acceleration
G28 ; home all without mesh bed level
G29 ; mesh bed leveling 
M204 T2500 ; restore travel acceleration
M104 S240 ; set extruder temp
G92 E0
G1 Y-2 X179 F2400
G1 Z3 F720
M109 S240 ; wait for extruder temp

; intro line
M73 P5 R1
G1 X170 F1000
G1 Z0.2 F720
M73 P6 R1
G1 X110 E8 F900
G1 X40 E10 F700
G92 E0

M221 S95 ; set flow
G21 ; set units to millimeters
G90 ; use absolute coordinates
M83 ; use relative distances for extrusion
M900 K0.2 ; Filament gcode

M107
;LAYER_CHANGE
;Z:0.2
;HEIGHT:0.2
;BEFORE_LAYER_CHANGE
G92 E0.0
;0.2


M73 P11 R1
G1 E-3.2 F2700
M73 P18 R1
G1 Z.2 F720
;AFTER_LAYER_CHANGE
;0.2
G1 Z.4
G1 X77.639 Y78.583 F9000
G1 Z.2 F720
M73 P19 R1
G1 E3.2 F1500
M204 P600
;TYPE:Skirt/Brim
;WIDTH:0.42
G1 F1200
G1 X78.705 Y77.569 E.04613
G1 X80 Y77.246 E.04185
G1 X100 Y77.246 E.62709
G1 X101.417 Y77.639 E.04611
M73 P21 R1
G1 X102.431 Y78.705 E.04613
G1 X102.754 Y80 E.04185
G1 X102.754 Y100 E.62709
G1 X102.361 Y101.417 E.04611
M73 P22 R1
G1 X101.295 Y102.431 E.04613
G1 X100 Y102.754 E.04185
G1 X80 Y102.754 E.62709
G1 X78.583 Y102.361 E.04611
M73 P23 R1
G1 X77.569 Y101.295 E.04613
M73 P24 R1
G1 X77.246 Y100 E.04185
G1 X77.246 Y80 E.62709
G1 X77.623 Y78.64 E.04425
M204 P1000
M73 P25 R1
G1 X77.997 Y78.752 F9000
M204 P600
G1 F1200
G1 X78.015 Y78.693 E.00193
G1 X79.06 Y77.817 E.04275
G1 X80 Y77.623 E.03009
G1 X100 Y77.623 E.62709
G1 X101.307 Y78.015 E.04278
M73 P26 R1
G1 X102.183 Y79.06 E.04275
G1 X102.377 Y80 E.03009
M73 P27 R1
G1 X102.377 Y100 E.62709
G1 X101.985 Y101.307 E.04278
M73 P28 R1
G1 X100.94 Y102.183 E.04275
G1 X100 Y102.377 E.03009
G1 X80 Y102.377 E.62709
G1 X78.693 Y101.985 E.04278
M73 P29 R0
G1 X77.817 Y100.94 E.04275
G1 X77.623 Y100 E.03009
G1 X77.623 Y80 E.62709
G1 X77.979 Y78.81 E.03895
M204 P1000
; printing object one_layer_20x20.stl id:0 copy 0
M73 P31 R0
G1 E-2.24 F2700
;WIPE_START
G1 F7200
G1 X78.015 Y78.693 E-.04361
G1 X79.06 Y77.817 E-.48578
G1 X80 Y77.623 E-.34193
G1 X80.249 Y77.623 E-.08868
;WIPE_END
G1 Z.4 F720
G1 X99.213 Y99.213 F9000
G1 Z.2 F720
G1 E3.2 F1500
M204 P600
;TYPE:Perimeter
;WIDTH:0.419999
G1 F1200
G1 X80.787 Y99.213 E.57773
G1 X80.787 Y80.787 E.57773
M73 P33 R0
G1 X99.213 Y80.787 E.57773
M73 P34 R0
G1 X99.213 Y99.153 E.57585
M204 P1000
M73 P35 R0
G1 X99.59 Y99.59 F9000
M204 P600
;TYPE:External perimeter
M73 P36 R0
G1 F1200
G1 X80.41 Y99.59 E.60137
G1 X80.41 Y80.41 E.60137
M73 P37 R0
G1 X99.59 Y80.41 E.60137
M73 P38 R0
G1 X99.59 Y99.53 E.59949
M204 P1000
M73 P39 R0
G1 X99.204 Y99.486 F9000
M73 P41 R0
G1 E-2.24 F2700
;WIPE_START
G1 F7200
G1 X96.895 Y99.538 E-.96
;WIPE_END
G1 Z.4 F720
G1 X99.043 Y81.731 F9000
G1 Z.2 F720
G1 E3.2 F1500
M204 P600
;TYPE:Solid infill
;WIDTH:0.425479
G1 F1200
G1 X98.439 Y81.126 E.02719
G1 X97.898 Y81.126 E.01721
G1 X98.874 Y82.102 E.04391
G1 X98.874 Y82.643 E.01721
G1 X97.357 Y81.126 E.06824
G1 X96.816 Y81.126 E.01721
M73 P42 R0
G1 X98.874 Y83.184 E.09258
G1 X98.874 Y83.725 E.01721
G1 X96.275 Y81.126 E.11692
G1 X95.734 Y81.126 E.01721
G1 X98.874 Y84.266 E.14126
G1 X98.874 Y84.807 E.01721
G1 X95.193 Y81.126 E.16559
G1 X94.652 Y81.126 E.01721
M73 P43 R0
G1 X98.874 Y85.348 E.18993
G1 X98.874 Y85.889 E.01721
G1 X94.111 Y81.126 E.21427
G1 X93.57 Y81.126 E.01721
M73 P44 R0
G1 X98.874 Y86.43 E.23861
G1 X98.874 Y86.971 E.01721
G1 X93.029 Y81.126 E.26294
G1 X92.488 Y81.126 E.01721
M73 P45 R0
G1 X98.874 Y87.512 E.28728
G1 X98.874 Y88.053 E.01721
G1 X91.947 Y81.126 E.31162
G1 X91.406 Y81.126 E.01721
M73 P46 R0
G1 X98.874 Y88.594 E.33596
G1 X98.874 Y89.135 E.01721
M73 P47 R0
G1 X90.865 Y81.126 E.36029
G1 X90.324 Y81.126 E.01721
G1 X98.874 Y89.676 E.38463
G1 X98.874 Y90.217 E.01721
M73 P48 R0
G1 X89.783 Y81.126 E.40897
G1 X89.242 Y81.126 E.01721
M73 P49 R0
G1 X98.874 Y90.758 E.43331
G1 X98.874 Y91.299 E.01721
M73 P50 R0
G1 X88.701 Y81.126 E.45764
G1 X88.16 Y81.126 E.01721
M73 P51 R0
G1 X98.874 Y91.84 E.48198
G1 X98.874 Y92.381 E.01721
M73 P52 R0
G1 X87.619 Y81.126 E.50632
G1 X87.078 Y81.126 E.01721
M73 P53 R0
G1 X98.874 Y92.922 E.53065
G1 X98.874 Y93.463 E.01721
M73 P54 R0
G1 X86.537 Y81.126 E.55499
G1 X85.996 Y81.126 E.01721
M73 P55 R0
G1 X98.874 Y94.004 E.57933
G1 X98.874 Y94.545 E.01721
M73 P56 R0
G1 X85.455 Y81.126 E.60367
G1 X84.914 Y81.126 E.01721
M73 P57 R0
G1 X98.874 Y95.086 E.628
G1 X98.874 Y95.627 E.01721
M73 P58 R0
G1 X84.373 Y81.126 E.65234
G1 X83.831 Y81.126 E.01724
M73 P60 R0
G1 X98.874 Y96.169 E.67672
G1 X98.874 Y96.71 E.01721
M73 P61 R0
G1 X83.29 Y81.126 E.70106
G1 X82.749 Y81.126 E.01721
M73 P62 R0
G1 X98.874 Y97.251 E.7254
G1 X98.874 Y97.792 E.01721
M73 P64 R0
G1 X82.208 Y81.126 E.74974
G1 X81.667 Y81.126 E.01721
M73 P65 R0
G1 X98.874 Y98.333 E.77407
G1 X98.873 Y98.874 E.01721
M73 P67 R0
G1 X81.126 Y81.127 E.79837
G1 X81.126 Y81.668 E.01721
M73 P68 R0
G1 X98.332 Y98.874 E.77403
G1 X97.791 Y98.874 E.01721
M73 P70 R0
G1 X81.126 Y82.209 E.74969
G1 X81.126 Y82.75 E.01721
M73 P71 R0
G1 X97.25 Y98.874 E.72535
G1 X96.709 Y98.874 E.01721
M73 P73 R0
G1 X81.126 Y83.291 E.70102
G1 X81.126 Y83.832 E.01721
M73 P74 R0
G1 X96.168 Y98.874 E.67668
G1 X95.627 Y98.874 E.01721
M73 P75 R0
G1 X81.126 Y84.373 E.65234
G1 X81.126 Y84.914 E.01721
M73 P77 R0
G1 X95.086 Y98.874 E.628
G1 X94.545 Y98.874 E.01721
M73 P78 R0
G1 X81.126 Y85.455 E.60367
G1 X81.126 Y85.996 E.01721
M73 P79 R0
G1 X94.004 Y98.874 E.57933
G1 X93.463 Y98.874 E.01721
M73 P80 R0
G1 X81.126 Y86.537 E.55499
G1 X81.126 Y87.078 E.01721
M73 P81 R0
G1 X92.922 Y98.874 E.53065
G1 X92.381 Y98.874 E.01721
M73 P82 R0
G1 X81.126 Y87.619 E.50632
G1 X81.126 Y88.16 E.01721
M73 P83 R0
G1 X91.84 Y98.874 E.48198
G1 X91.299 Y98.874 E.01721
M73 P84 R0
G1 X81.126 Y88.701 E.45764
G1 X81.126 Y89.242 E.01721
M73 P85 R0
G1 X90.758 Y98.874 E.43331
G1 X90.217 Y98.874 E.01721
M73 P86 R0
G1 X81.126 Y89.783 E.40897
G1 X81.126 Y90.324 E.01721
M73 P87 R0
G1 X89.676 Y98.874 E.38463
G1 X89.135 Y98.874 E.01721
M73 P88 R0
G1 X81.126 Y90.865 E.36029
G1 X81.126 Y91.406 E.01721
M73 P89 R0
G1 X88.594 Y98.874 E.33596
G1 X88.053 Y98.874 E.01721
G1 X81.126 Y91.947 E.31162
G1 X81.126 Y92.488 E.01721
M73 P90 R0
G1 X87.512 Y98.874 E.28728
G1 X86.971 Y98.874 E.01721
G1 X81.126 Y93.029 E.26294
G1 X81.126 Y93.57 E.01721
M73 P91 R0
G1 X86.43 Y98.874 E.23861
G1 X85.889 Y98.874 E.01721
G1 X81.126 Y94.111 E.21427
M73 P92 R0
G1 X81.126 Y94.652 E.01721
G1 X85.348 Y98.874 E.18993
G1 X84.807 Y98.874 E.01721
G1 X81.126 Y95.193 E.16559
G1 X81.126 Y95.734 E.01721
M73 P93 R0
G1 X84.266 Y98.874 E.14126
G1 X83.725 Y98.874 E.01721
G1 X81.126 Y96.275 E.11692
G1 X81.126 Y96.816 E.01721
G1 X83.184 Y98.874 E.09258
G1 X82.643 Y98.874 E.01721
M73 P94 R0
G1 X81.126 Y97.357 E.06824
G1 X81.126 Y97.898 E.01721
G1 X82.102 Y98.874 E.04391
G1 X81.561 Y98.874 E.01721
G1 X80.957 Y98.269 E.02719
M204 P1000
; stop printing object one_layer_20x20.stl id:0 copy 0
G1 E-2.24 F2700
;WIPE_START
G1 F7200;_WIPE
G1 X81.561 Y98.874 E-.30456
G1 F7200;_WIPE
G1 X82.102 Y98.874 E-.19273
G1 F7200;_WIPE
G1 X81.184 Y97.956 E-.46271
;WIPE_END
G1 Z.4 F720
M107
;TYPE:Custom
; Filament-specific end gcode
G1 E-1 F2100 ; retract
G1 Z2.2 F720 ; Move print head up
G1 X178 Y178 F4200 ; park print head
M73 P95 R0
G1 Z30.2 F720 ; Move print head further up
G4 ; wait
M104 S0 ; turn off temperature
M140 S0 ; turn off heatbed
M107 ; turn off fan
M221 S100 ; reset flow
M900 K0 ; reset LA
M84 ; disable motors
; max_layer_z = 0.2
M73 P100 R0
; filament used [mm] = 56.03
; filament used [cm3] = 0.13
; filament used [g] = 0.17
; filament cost = 0.01
; total filament used [g] = 0.17
; total filament cost = 0.01
; estimated printing time (normal mode) = 1m 23s
; estimated first layer printing time (normal mode) = 1m 23s

; prusaslicer_config = begin
; autoemit_temperature_commands = 1
; avoid_crossing_curled_overhangs = 0
; avoid_crossing_perimeters = 0
; avoid_crossing_perimeters_max_detour = 0
; bed_custom_model = 
; bed_custom_texture = 
; bed_shape = 0x0,180x0,180x180,0x180
; bed_temperature = 90
; before_layer_gcode = ;BEFORE_LAYER_CHANGE\nG92 E0.0\n;[layer_z]\n\n
; between_objects_gcode = 
; bottom_fill_pattern = monotonic
; bottom_solid_layers = 4
; bottom_solid_min_thickness = 0.5
; bridge_acceleration = 1000
; bridge_angle = 0
; bridge_fan_speed = 50
; bridge_flow_ratio = 0.95
; bridge_speed = 25
; brim_separation = 0.1
; brim_type = outer_only
; brim_width = 0
; color_change_gcode = M600
; compatible_printers_condition_cummulative = "printer_notes=~/.*PRINTER_VENDOR_PRUSA3D.*/ and printer_model==\"MINI\" and nozzle_diameter[0]==0.4";"printer_model==\"MINI\" and nozzle_diameter[0]!=0.8 and nozzle_diameter[0]!=0.6"
; complete_objects = 0
; cooling = 1
; cooling_tube_length = 5
; cooling_tube_retraction = 91.5
; default_acceleration = 1000
; default_filament_profile = "Prusament PLA"
; default_print_profile = 0.15mm QUALITY @MINI
; deretract_speed = 40
; disable_fan_first_layers = 3
; dont_support_bridges = 0
; draft_shield = disabled
; duplicate_distance = 6
; elefant_foot_compensation = 0.2
; enable_dynamic_fan_speeds = 0
; enable_dynamic_overhang_speeds = 1
; end_filament_gcode = "; Filament-specific end gcode"
; end_gcode = G1 E-1 F2100 ; retract\n{if max_layer_z < max_print_height}G1 Z{z_offset+min(max_layer_z+2, max_print_height)} F720 ; Move print head up{endif}\nG1 X178 Y178 F4200 ; park print head\n{if max_layer_z < max_print_height}G1 Z{z_offset+min(max_layer_z+30, max_print_height)} F720 ; Move print head further up{endif}\nG4 ; wait\nM104 S0 ; turn off temperature\nM140 S0 ; turn off heatbed\nM107 ; turn off fan\nM221 S100 ; reset flow\nM900 K0 ; reset LA\nM84 ; disable motors\n; max_layer_z = [max_layer_z]
; external_perimeter_acceleration = 800
; external_perimeter_extrusion_width = 0.45
; external_perimeter_speed = 30
; external_perimeters_first = 0
; extra_loading_move = -2
; extra_perimeters = 0
; extra_perimeters_on_overhangs = 0
; extruder_clearance_height = 20
; extruder_clearance_radius = 35
; extruder_colour = ""
; extruder_offset = 0x0
; extrusion_axis = E
; extrusion_multiplier = 1
; extrusion_width = 0.45
; fan_always_on = 1
; fan_below_layer_time = 20
; filament_colour = #FF8000
; filament_cooling_final_speed = 3.4
; filament_cooling_initial_speed = 2.2
; filament_cooling_moves = 4
; filament_cost = 36.29
; filament_density = 1.27
; filament_deretract_speed = 25
; filament_diameter = 1.75
; filament_load_time = 0
; filament_loading_speed = 28
; filament_loading_speed_start = 3
; filament_max_volumetric_speed = 8
; filament_minimal_purge_on_wipe_tower = 15
; filament_multitool_ramming = 0
; filament_multitool_ramming_flow = 10
; filament_multitool_ramming_volume = 10
; filament_notes = ""
; filament_ramming_parameters = "120 100 6.6 6.8 7.2 7.6 7.9 8.2 8.7 9.4 9.9 10.0| 0.05 6.6 0.45 6.8 0.95 7.8 1.45 8.3 1.95 9.7 2.45 10 2.95 7.6 3.45 7.6 3.95 7.6 4.45 7.6 4.95 7.6"
; filament_retract_before_travel = 1
; filament_retract_speed = 45
; filament_settings_id = "Prusament PETG @MINI"
; filament_soluble = 0
; filament_spool_weight = 193
; filament_toolchange_delay = 0
; filament_type = PETG
; filament_unload_time = 0
; filament_unloading_speed = 90
; filament_unloading_speed_start = 100
; filament_vendor = Prusa Polymers
; fill_angle = 45
; fill_density = 15%
; fill_pattern = gyroid
; first_layer_acceleration = 600
; first_layer_acceleration_over_raft = 0
; first_layer_bed_temperature = 85
; first_layer_extrusion_width = 0.42
; first_layer_height = 0.2
; first_layer_speed = 20
; first_layer_speed_over_raft = 30
; first_layer_temperature = 240
; full_fan_speed_layer = 0
; fuzzy_skin = none
; fuzzy_skin_point_dist = 0.8
; fuzzy_skin_thickness = 0.3
; gap_fill_enabled = 1
; gap_fill_speed = 40
; gcode_comments = 0
; gcode_flavor = marlin2
; gcode_label_objects = 1
; gcode_resolution = 0.0125
; gcode_substitutions = 
; high_current_on_filament_swap = 0
; host_type = prusalink
; infill_acceleration = 1500
; infill_anchor = 2.5
; infill_anchor_max = 12
; infill_every_layers = 1
; infill_extruder = 1
; infill_extrusion_width = 0.45
; infill_first = 0
; infill_overlap = 10%
; infill_speed = 80
; interface_shells = 0
; ironing = 0
; ironing_flowrate = 15%
; ironing_spacing = 0.1
; ironing_speed = 15
; ironing_type = top
; layer_gcode = ;AFTER_LAYER_CHANGE\n;[layer_z]
; layer_height = 0.2
; machine_limits_usage = emit_to_gcode
; machine_max_acceleration_e = 5000
; machine_max_acceleration_extruding = 2000
; machine_max_acceleration_retracting = 1250
; machine_max_acceleration_travel = 2500
; machine_max_acceleration_x = 2500
; machine_max_acceleration_y = 2500
; machine_max_acceleration_z = 400
; machine_max_feedrate_e = 80
; machine_max_feedrate_x = 180
; machine_max_feedrate_y = 180
; machine_max_feedrate_z = 12
; machine_max_jerk_e = 10
; machine_max_jerk_x = 8
; machine_max_jerk_y = 8
; machine_max_jerk_z = 2
; machine_min_extruding_rate = 0
; machine_min_travel_rate = 0
; max_fan_speed = 50
; max_layer_height = 0.25
; max_print_height = 180
; max_print_speed = 150
; max_volumetric_extrusion_rate_slope_negative = 0
; max_volumetric_extrusion_rate_slope_positive = 0
; max_volumetric_speed = 0
; min_bead_width = 85%
; min_fan_speed = 30
; min_feature_size = 25%
; min_layer_height = 0.07
; min_print_speed = 15
; min_skirt_length = 4
; mmu_segmented_region_interlocking_depth = 0
; mmu_segmented_region_max_width = 0
; notes = 
; nozzle_diameter = 0.4
; only_retract_when_crossing_perimeters = 0
; ooze_prevention = 0
; output_filename_format = {input_filename_base}_{layer_height}mm_{printing_filament_types}_{printer_model}_{print_time}.gcode
; overhang_fan_speed_0 = 0
; overhang_fan_speed_1 = 0
; overhang_fan_speed_2 = 0
; overhang_fan_speed_3 = 0
; overhang_speed_0 = 15
; overhang_speed_1 = 15
; overhang_speed_2 = 20
; overhang_speed_3 = 25
; overhangs = 1
; parking_pos_retraction = 92
; pause_print_gcode = M601
; perimeter_acceleration = 900
; perimeter_extruder = 1
; perimeter_extrusion_width = 0.45
; perimeter_generator = arachne
; perimeter_speed = 40
; perimeters = 2
; physical_printer_settings_id = 
; post_process = 
; print_settings_id = 0.20mm QUALITY @MINI
; printer_model = MINI
; printer_notes = Don't remove the following keywords! These keywords are used in the "compatible printer" condition of the print and filament profiles to link the particular print and filament profiles to this printer profile.\nPRINTER_VENDOR_PRUSA3D\nPRINTER_MODEL_MINI\n
; printer_settings_id = Original Prusa MINI & MINI+
; printer_technology = FFF
; printer_variant = 0.4
; printer_vendor = 
; raft_contact_distance = 0.2
; raft_expansion = 1.5
; raft_first_layer_density = 90%
; raft_first_layer_expansion = 3
; raft_layers = 0
; remaining_times = 1
; resolution = 0
; retract_before_travel = 1.5
; retract_before_wipe = 70%
; retract_layer_change = 1
; retract_length = 3.2
; retract_length_toolchange = 4
; retract_lift = 0.2
; retract_lift_above = 0
; retract_lift_below = 179
; retract_restart_extra = 0
; retract_restart_extra_toolchange = 0
; retract_speed = 70
; seam_position = aligned
; silent_mode = 0
; single_extruder_multi_material = 0
; single_extruder_multi_material_priming = 1
; skirt_distance = 2
; skirt_height = 3
; skirts = 1
