; generated by PrusaSlicer 2.6.1+linux-x64-GTK3 on 2023-11-17 at 20:19:32 UTC


;
;
; 

; external perimeters extrusion width = 0.45mm
; perimeters extrusion width = 0.45mm
; infill extrusion width = 0.45mm
; solid infill extrusion width = 0.45mm
; top infill extrusion width = 0.40mm
; first layer extrusion width = 0.42mm

M73 P0 R91
M73 Q0 S91
M201 X1000 Y1000 Z200 E5000 ; sets maximum accelerations, mm/sec^2
M203 X200 Y200 Z12 E120 ; sets maximum feedrates, mm / sec
M204 S1250 T1250 ; sets acceleration (S) and retract acceleration (R), mm/sec^2
M205 X8.00 Y8.00 Z0.40 E4.50 ; sets the jerk limits, mm/sec
M205 S0 T0 ; sets the minimum extruding and travel feed rate, mm/sec
;TYPE:Custom
M862.3 P "MK3S" ; printer model check
M862.1 P0.4 ; nozzle diameter check
M115 U3.13.2 ; tell printer latest fw version
G90 ; use absolute coordinates
M83 ; extruder relative mode
M104 S215 ; set extruder temp
M140 S60 ; set bed temp
M190 S60 ; wait for bed temp
M109 S215 ; wait for extruder temp
G28 W ; home all without mesh bed level
G80 ; mesh bed leveling

G1 Z0.2 F720
G1 Y-3 F1000 ; go outside print area
G92 E0
G1 X60 E9 F1000 ; intro line
G1 X100 E12.5 F1000 ; intro line

G92 E0
M221 S95

; Don't change E values below. Excessive value can damage the printer.
M907 E430 ; set extruder motor current
G21 ; set units to millimeters
G90 ; use absolute coordinates
M83 ; use relative distances for extrusion
M900 K0.05 ; Filament gcode LA 1.5
M900 K30 ; Filament gcode LA 1.0

M107
;LAYER_CHANGE
;Z:0.2
;HEIGHT:0.2
;BEFORE_LAYER_CHANGE
G92 E0.0
;0.2


M73 P0 R90
G1 E-.8 F2100
G1 Z.4 F720
;AFTER_LAYER_CHANGE
;0.2
G1 X117.209 Y97.602 F10800
G1 Z.2 F720
M73 Q0 S90
G1 E.8 F2100
M204 S800
;TYPE:Skirt/Brim
;WIDTH:0.42
G1 F1200
G1 X118.806 Y96.221 E.0662
G1 X120.64 Y95.18 E.06612
G1 X122.64 Y94.518 E.06605
G1 X124.73 Y94.259 E.06603
G1 X126.831 Y94.413 E.06605
G1 X128.861 Y94.973 E.06603
G1 X130.743 Y95.919 E.06604
G1 X132.404 Y97.214 E.06604
G1 X133.78 Y98.807 E.066
G1 X134.82 Y100.64 E.06608
G1 X135.482 Y102.64 E.06605
G1 X135.741 Y104.73 E.06603
G1 X135.587 Y106.831 E.06605
G1 X135.027 Y108.861 E.06603
G1 X134.081 Y110.743 E.06604
G1 X132.791 Y112.398 E.06579
G1 X131.194 Y113.779 E.0662
G1 X129.36 Y114.82 E.06612
G1 X127.36 Y115.482 E.06605
G1 X125.27 Y115.741 E.06603
G1 X123.169 Y115.587 E.06605
G1 X121.139 Y115.027 E.06603
G1 X119.257 Y114.081 E.06604
G1 X117.596 Y112.786 E.06604
G1 X116.219 Y111.192 E.06605
G1 X115.182 Y109.364 E.0659
G1 X114.52 Y107.366 E.066
G1 X114.259 Y105.272 E.06616
G1 X114.412 Y103.174 E.06596
G1 X114.972 Y101.142 E.06609
G1 X115.919 Y99.258 E.06611
G1 X117.172 Y97.649 E.06394
M204 S1000
G1 X117.476 Y97.89 F10800
M204 S800
G1 F1200
G1 X117.625 Y97.701 E.00755
G1 X119.047 Y96.511 E.05814
G1 X120.818 Y95.513 E.06374
G1 X122.749 Y94.879 E.06372
G1 X124.767 Y94.634 E.06374
G1 X126.794 Y94.788 E.06374
G1 X128.751 Y95.334 E.0637
G1 X130.565 Y96.252 E.06375
G1 X132.165 Y97.506 E.06374
G1 X133.488 Y99.046 E.06366
G1 X134.487 Y100.818 E.06378
G1 X135.121 Y102.749 E.06372
G1 X135.366 Y104.767 E.06374
G1 X135.212 Y106.794 E.06374
G1 X134.666 Y108.751 E.0637
G1 X133.748 Y110.565 E.06375
G1 X132.375 Y112.299 E.06935
G1 X130.953 Y113.489 E.05814
G1 X129.182 Y114.487 E.06374
G1 X127.251 Y115.121 E.06372
G1 X125.233 Y115.366 E.06374
G1 X123.206 Y115.212 E.06374
G1 X121.249 Y114.666 E.0637
G1 X119.435 Y113.748 E.06375
G1 X117.835 Y112.494 E.06374
G1 X116.511 Y110.953 E.0637
G1 X115.515 Y109.186 E.0636
G1 X114.881 Y107.257 E.06367
G1 X114.635 Y105.234 E.0639
G1 X114.788 Y103.211 E.06361
G1 X115.333 Y101.251 E.06379
G1 X116.252 Y99.435 E.06382
G1 X117.439 Y97.937 E.05993
M204 S1000
; printing object cylinder_hollow_100x8.stl id:0 copy 0
;WIPE_START
G1 F8640
G1 X117.625 Y97.701 E-.06938
G1 X119.047 Y96.511 E-.42815
G1 X120.188 Y95.868 E-.30247
;WIPE_END
G1 Z.6 F720
G1 X122.117 Y111.93 F10800
G1 Z.2 F720
G1 E.8 F2100
M204 S800
;TYPE:External perimeter
;WIDTH:0.567849
G1 F1200
G1 X120.894 Y111.284 E.06037
G1 X120.766 Y111.198 E.00673
G1 X119.747 Y110.362 E.05753
G1 X119.638 Y110.253 E.00673
G1 X118.802 Y109.234 E.05753
G1 X118.716 Y109.106 E.00673
G1 X118.095 Y107.944 E.05751
G1 X118.036 Y107.801 E.00675
G1 X117.653 Y106.54 E.05752
G1 X117.623 Y106.389 E.00672
G1 X117.494 Y105.077 E.05754
G1 X117.494 Y104.923 E.00672
G1 X117.623 Y103.611 E.05754
G1 X117.653 Y103.46 E.00672
G1 X118.036 Y102.199 E.05752
G1 X118.095 Y102.056 E.00675
G1 X118.716 Y100.894 E.05751
G1 X118.802 Y100.766 E.00673
G1 X119.638 Y99.747 E.05753
G1 X119.747 Y99.638 E.00673
G1 X120.766 Y98.802 E.05753
G1 X120.894 Y98.716 E.00673
G1 X122.056 Y98.095 E.05751
G1 X122.199 Y98.036 E.00675
G1 X123.46 Y97.653 E.05752
G1 X123.611 Y97.623 E.00672
G1 X124.923 Y97.494 E.05754
G1 X125.077 Y97.494 E.00672
G1 X126.389 Y97.623 E.05754
G1 X126.54 Y97.653 E.00672
G1 X127.801 Y98.036 E.05752
G1 X127.944 Y98.095 E.00675
G1 X129.106 Y98.716 E.05751
G1 X129.234 Y98.802 E.00673
G1 X130.253 Y99.638 E.05753
G1 X130.362 Y99.747 E.00673
G1 X131.198 Y100.766 E.05753
G1 X131.284 Y100.894 E.00673
G1 X131.905 Y102.056 E.05751
G1 X131.964 Y102.199 E.00675
G1 X132.347 Y103.46 E.05752
G1 X132.377 Y103.611 E.00672
G1 X132.506 Y104.923 E.05754
;WIDTH:0.569114
G1 X132.511 Y105.026 E.00451
G1 X132.506 Y105.077 E.00224
;WIDTH:0.567849
G1 X132.377 Y106.389 E.05754
G1 X132.347 Y106.54 E.00672
G1 X131.964 Y107.801 E.05752
G1 X131.905 Y107.944 E.00675
G1 X131.284 Y109.106 E.05751
G1 X131.198 Y109.234 E.00673
G1 X130.362 Y110.253 E.05753
G1 X130.253 Y110.362 E.00673
G1 X129.234 Y111.198 E.05753
G1 X129.106 Y111.284 E.00673
G1 X127.944 Y111.905 E.05751
G1 X127.801 Y111.964 E.00675
G1 X126.54 Y112.347 E.05752
G1 X126.389 Y112.377 E.00672
G1 X125.077 Y112.506 E.05754
G1 X124.923 Y112.506 E.00672
G1 X123.611 Y112.377 E.05754
G1 X123.46 Y112.347 E.00672
G1 X122.172 Y111.953 E.05879
M204 S1000
G1 X122.076 Y111.532 F10800
;WIPE_START
G1 F8640
G1 X120.894 Y111.284 E-.33308
G1 X120.766 Y111.198 E-.03561
G1 X119.747 Y110.362 E-.30434
G1 X119.638 Y110.253 E-.03559
G1 X119.387 Y109.947 E-.09138
;WIPE_END
G1 Z.6 F720
G1 X127.633 Y98.533 F10800
G1 Z.2 F720
G1 E.8 F2100
M204 S800
;WIDTH:0.56785
G1 F1200
G1 X128.859 Y99.179 E.06049
G1 X129.92 Y100.044 E.05975
G1 X130.792 Y101.099 E.05974
G1 X131.442 Y102.304 E.05976
G1 X131.845 Y103.612 E.05974
G1 X131.984 Y104.974 E.05976
G1 X131.855 Y106.337 E.05976
G1 X131.462 Y107.649 E.05978
G1 X130.821 Y108.859 E.05977
G1 X129.956 Y109.92 E.05975
G1 X128.901 Y110.792 E.05974
G1 X127.696 Y111.442 E.05976
G1 X126.388 Y111.845 E.05974
G1 X125.026 Y111.984 E.05976
G1 X123.663 Y111.855 E.05976
G1 X122.351 Y111.462 E.05978
G1 X121.141 Y110.821 E.05977
G1 X120.08 Y109.956 E.05975
G1 X119.208 Y108.901 E.05974
G1 X118.558 Y107.696 E.05976
G1 X118.155 Y106.388 E.05974
G1 X118.016 Y105.026 E.05976
G1 X118.145 Y103.663 E.05976
G1 X118.538 Y102.351 E.05978
G1 X119.179 Y101.141 E.05977
G1 X120.044 Y100.08 E.05975
G1 X121.099 Y99.208 E.05974
G1 X122.304 Y98.558 E.05976
G1 X123.612 Y98.155 E.05974
G1 X124.974 Y98.016 E.05976
G1 X126.337 Y98.145 E.05976
G1 X127.575 Y98.516 E.05641
M204 S1000
G1 X127.949 Y98.288 F10800
; stop printing object cylinder_hollow_100x8.stl id:0 copy 0
M106 S84.15
;LAYER_CHANGE
;Z:0.4
;HEIGHT:0.2
;BEFORE_LAYER_CHANGE
G92 E0.0
;0.4


;WIPE_START
G1 F8640
G1 X128.859 Y99.179 E-.33367
G1 X129.92 Y100.044 E-.31609
G1 X130.335 Y100.546 E-.15024
;WIPE_END
G1 Z.6 F720
;AFTER_LAYER_CHANGE
;0.4
G1 X133.168 Y98.099 F10800
G1 Z.4 F720
G1 E.8 F2100
;TYPE:Skirt/Brim
;WIDTH:0.42
G1 F2412
G1 X133.78 Y98.807 E.02934
G1 X134.82 Y100.64 E.06608
G1 X135.482 Y102.64 E.06605
G1 X135.741 Y104.73 E.06603
G1 X135.587 Y106.831 E.06605
G1 X135.027 Y108.861 E.06603
G1 X134.081 Y110.743 E.06604
G1 X132.791 Y112.398 E.06579
G1 X131.194 Y113.779 E.0662
G1 X129.36 Y114.82 E.06612
G1 X127.36 Y115.482 E.06605
G1 X125.27 Y115.741 E.06603
G1 X123.169 Y115.587 E.06605
G1 X121.139 Y115.027 E.06603
G1 X119.257 Y114.081 E.06604
G1 X117.596 Y112.786 E.06604
G1 X116.219 Y111.192 E.06605
G1 X115.182 Y109.364 E.0659
G1 X114.52 Y107.366 E.066
G1 X114.259 Y105.272 E.06616
G1 X114.412 Y103.174 E.06596
G1 X114.972 Y101.142 E.06609
G1 X115.919 Y99.258 E.06611
G1 X117.209 Y97.602 E.06582
G1 X118.806 Y96.221 E.0662
G1 X120.64 Y95.18 E.06612
G1 X122.64 Y94.518 E.06605
G1 X124.73 Y94.259 E.06603
G1 X126.831 Y94.413 E.06605
G1 X128.861 Y94.973 E.06603
G1 X130.743 Y95.919 E.06604
G1 X132.404 Y97.214 E.06604
G1 X133.129 Y98.053 E.03477
G1 X132.845 Y98.297 F10800
G1 F2412
G1 X133.488 Y99.046 E.03095
G1 X134.487 Y100.818 E.06378
G1 X135.121 Y102.749 E.06372
G1 X135.366 Y104.767 E.06374
G1 X135.212 Y106.794 E.06374
G1 X134.666 Y108.751 E.0637
G1 X133.748 Y110.565 E.06375
G1 X132.375 Y112.299 E.06935
G1 X130.953 Y113.489 E.05814
G1 X129.182 Y114.487 E.06374
G1 X127.251 Y115.121 E.06372
G1 X125.233 Y115.366 E.06374
G1 X123.206 Y115.212 E.06374
G1 X121.249 Y114.666 E.0637
G1 X119.435 Y113.748 E.06375
G1 X117.835 Y112.494 E.06374
G1 X116.511 Y110.953 E.0637
G1 X115.515 Y109.186 E.0636
G1 X114.881 Y107.257 E.06367
G1 X114.635 Y105.234 E.0639
G1 X114.788 Y103.211 E.06361
G1 X115.333 Y101.251 E.06379
G1 X116.252 Y99.435 E.06382
G1 X117.625 Y97.701 E.06935
G1 X119.047 Y96.511 E.05814
G1 X120.818 Y95.513 E.06374
G1 X122.749 Y94.879 E.06372
G1 X124.767 Y94.634 E.06374
G1 X126.794 Y94.788 E.06374
G1 X128.751 Y95.334 E.0637
G1 X130.565 Y96.252 E.06375
G1 X132.165 Y97.506 E.06374
G1 X132.806 Y98.252 E.03084
; printing object cylinder_hollow_100x8.stl id:0 copy 0
;WIPE_START
G1 F8640
G1 X133.488 Y99.046 E-.24168
G1 X134.487 Y100.818 E-.4697
G1 X134.607 Y101.183 E-.08862
;WIPE_END
G1 Z.8 F720
G1 X122.158 Y111.834 F10800
G1 Z.4 F720
G1 E.8 F2100
M204 S800
;TYPE:Perimeter
;WIDTH:0.360769
G1 F2412
G1 X120.96 Y111.202 E.0358
G1 X120.816 Y111.106 E.00457
G1 X119.828 Y110.295 E.03378
G1 X119.705 Y110.172 E.0046
G1 X118.894 Y109.184 E.03378
G1 X118.798 Y109.04 E.00457
G1 X118.195 Y107.912 E.0338
G1 X118.129 Y107.752 E.00457
G1 X117.758 Y106.529 E.03378
G1 X117.724 Y106.359 E.00458
G1 X117.599 Y105.087 E.03378
G1 X117.599 Y104.913 E.0046
G1 X117.724 Y103.641 E.03378
G1 X117.758 Y103.471 E.00458
G1 X118.129 Y102.248 E.03378
G1 X118.195 Y102.088 E.00457
G1 X118.798 Y100.96 E.0338
G1 X118.894 Y100.816 E.00457
G1 X119.705 Y99.828 E.03378
G1 X119.828 Y99.705 E.0046
G1 X120.816 Y98.894 E.03378
G1 X120.96 Y98.798 E.00457
G1 X122.088 Y98.195 E.0338
G1 X122.248 Y98.129 E.00457
G1 X123.471 Y97.758 E.03378
G1 X123.641 Y97.724 E.00458
G1 X124.914 Y97.599 E.03381
G1 X125.087 Y97.599 E.00457
G1 X126.359 Y97.724 E.03378
G1 X126.529 Y97.758 E.00458
G1 X127.752 Y98.129 E.03378
G1 X127.912 Y98.195 E.00457
G1 X129.04 Y98.798 E.0338
G1 X129.184 Y98.894 E.00457
G1 X130.172 Y99.705 E.03378
G1 X130.295 Y99.828 E.0046
G1 X131.106 Y100.816 E.03378
G1 X131.202 Y100.96 E.00457
G1 X131.805 Y102.088 E.0338
G1 X131.871 Y102.248 E.00457
G1 X132.242 Y103.471 E.03378
G1 X132.276 Y103.641 E.00458
G1 X132.401 Y104.913 E.03378
;WIDTH:0.362518
G1 X132.407 Y105.016 E.00274
G1 X132.401 Y105.087 E.00189
;WIDTH:0.360769
G1 X132.276 Y106.359 E.03378
G1 X132.242 Y106.529 E.00458
G1 X131.871 Y107.752 E.03378
G1 X131.805 Y107.912 E.00457
G1 X131.202 Y109.04 E.0338
G1 X131.106 Y109.184 E.00457
G1 X130.295 Y110.172 E.03378
G1 X130.172 Y110.295 E.0046
G1 X129.184 Y111.106 E.03378
G1 X129.04 Y111.202 E.00457
G1 X127.912 Y111.805 E.0338
G1 X127.752 Y111.871 E.00457
G1 X126.529 Y112.242 E.03378
G1 X126.359 Y112.276 E.00458
G1 X125.087 Y112.401 E.03378
G1 X124.913 Y112.401 E.0046
G1 X123.641 Y112.276 E.03378
G1 X123.471 Y112.242 E.00458
G1 X122.213 Y111.857 E.03477
M204 S1000
;WIPE_START
G1 F8640
G1 X120.96 Y111.202 E-.32647
G1 X120.816 Y111.106 E-.03996
G1 X119.828 Y110.295 E-.29515
G1 X119.705 Y110.172 E-.04017
G1 X119.435 Y109.843 E-.09825
;WIPE_END
G1 Z.8 F720
G1 X127.692 Y98.446 F10800
G1 Z.4 F720
G1 E.8 F2100
M204 S800
;WIDTH:0.36077
G1 F2412
G1 X128.89 Y99.078 E.0358
G1 X129.971 Y99.951 E.03672
G1 X130.86 Y101.018 E.03671
G1 X131.524 Y102.237 E.03669
G1 X131.938 Y103.563 E.03671
G1 X132.085 Y104.945 E.03673
G1 X131.96 Y106.328 E.0367
G1 X131.567 Y107.66 E.0367
G1 X130.922 Y108.89 E.03671
G1 X130.049 Y109.971 E.03672
G1 X128.982 Y110.86 E.03671
G1 X127.763 Y111.524 E.03669
G1 X126.437 Y111.938 E.03671
G1 X125.055 Y112.085 E.03673
G1 X123.672 Y111.96 E.0367
G1 X122.34 Y111.567 E.0367
G1 X121.11 Y110.922 E.03671
G1 X120.029 Y110.049 E.03672
G1 X119.14 Y108.982 E.03671
G1 X118.476 Y107.763 E.03669
G1 X118.062 Y106.437 E.03671
G1 X117.915 Y105.055 E.03673
G1 X118.04 Y103.672 E.0367
G1 X118.433 Y102.34 E.0367
G1 X119.078 Y101.11 E.03671
G1 X119.951 Y100.029 E.03672
G1 X121.018 Y99.14 E.03671
G1 X122.237 Y98.476 E.03669
G1 X123.563 Y98.062 E.03671
G1 X124.945 Y97.915 E.03673
G1 X126.328 Y98.04 E.0367
G1 X127.636 Y98.426 E.03604
M204 S1000
G1 X127.555 Y98.78 F10800
M204 S800
;TYPE:External perimeter
;WIDTH:0.449999
G1 F1500
G1 X128.719 Y99.398 E.04461
G1 X129.741 Y100.231 E.04463
G1 X130.58 Y101.248 E.04463
G1 X131.205 Y102.408 E.0446
G1 X131.591 Y103.669 E.04464
G1 X131.724 Y104.98 E.0446
G1 X131.599 Y106.292 E.04461
G1 X131.22 Y107.555 E.04463
G1 X130.602 Y108.719 E.04461
G1 X129.769 Y109.741 E.04463
G1 X128.752 Y110.58 E.04463
G1 X127.592 Y111.205 E.0446
G1 X126.331 Y111.591 E.04464
G1 X125.02 Y111.724 E.0446
G1 X123.708 Y111.599 E.04461
G1 X122.445 Y111.22 E.04463
G1 X121.281 Y110.602 E.04461
G1 X120.259 Y109.769 E.04463
G1 X119.42 Y108.752 E.04463
G1 X118.795 Y107.592 E.0446
G1 X118.409 Y106.331 E.04464
G1 X118.276 Y105.02 E.0446
G1 X118.401 Y103.708 E.04461
G1 X118.78 Y102.445 E.04463
G1 X119.398 Y101.281 E.04461
G1 X120.231 Y100.259 E.04463
G1 X121.248 Y99.42 E.04463
G1 X122.408 Y98.795 E.0446
G1 X123.669 Y98.409 E.04464
G1 X124.98 Y98.276 E.0446
G1 X126.292 Y98.401 E.04461
G1 X127.497 Y98.763 E.04259
M204 S1000
G1 X127.871 Y98.536 F10800
;WIPE_START
G1 F8640
G1 X128.719 Y99.398 E-.31798
G1 X129.741 Y100.231 E-.30444
G1 X130.23 Y100.824 E-.17758
;WIPE_END
G1 Z.8 F720
G1 X122.012 Y112.175 F10800
G1 Z.4 F720
G1 E.8 F2100
M204 S800
G1 F1500
G1 X120.681 Y111.464 E.05108
G1 X119.503 Y110.497 E.05159
G1 X118.536 Y109.319 E.05159
G1 X117.818 Y107.975 E.05158
G1 X117.375 Y106.517 E.05158
G1 X117.226 Y105 E.0516
G1 X117.375 Y103.483 E.0516
G1 X117.818 Y102.025 E.05158
G1 X118.536 Y100.681 E.05158
G1 X119.503 Y99.503 E.05159
G1 X120.681 Y98.536 E.05159
G1 X122.025 Y97.818 E.05158
G1 X123.483 Y97.375 E.05158
G1 X125.005 Y97.227 E.05176
G1 X126.517 Y97.375 E.05142
G1 X127.975 Y97.818 E.05158
G1 X129.319 Y98.536 E.05158
G1 X130.497 Y99.503 E.05159
G1 X131.464 Y100.681 E.05159
G1 X132.182 Y102.025 E.05158
G1 X132.625 Y103.483 E.05158
G1 X132.769 Y105.051 E.0533
G1 X132.625 Y106.517 E.04986
G1 X132.182 Y107.975 E.05158
G1 X131.464 Y109.319 E.05158
G1 X130.497 Y110.497 E.05159
G1 X129.319 Y111.464 E.05159
G1 X127.975 Y112.182 E.05158
G1 X126.517 Y112.625 E.05158
G1 X125 Y112.774 E.0516
G1 X123.483 Y112.625 E.0516
G1 X122.069 Y112.195 E.05003
M204 S1000
G1 X121.96 Y111.779 F10800
; stop printing object cylinder_hollow_100x8.stl id:0 copy 0
M106 S170.85
;LAYER_CHANGE
;Z:0.6
;HEIGHT:0.2
;BEFORE_LAYER_CHANGE
G92 E0.0
;0.6


;WIPE_START
G1 F8640
G1 X120.681 Y111.464 E-.36222
G1 X119.503 Y110.497 E-.35191
G1 X119.267 Y110.21 E-.08587
;WIPE_END
G1 Z.8 F720
;AFTER_LAYER_CHANGE
;0.6
G1 X117.035 Y112.137 F10800
G1 Z.6 F720
G1 E.8 F2100
;TYPE:Skirt/Brim
;WIDTH:0.42
G1 F2477
G1 X116.219 Y111.192 E.03915
G1 X115.182 Y109.364 E.0659
G1 X114.52 Y107.366 E.066
G1 X114.259 Y105.272 E.06616
G1 X114.412 Y103.174 E.06596
G1 X114.972 Y101.142 E.06609
G1 X115.919 Y99.258 E.06611
G1 X117.209 Y97.602 E.06582
G1 X118.806 Y96.221 E.0662
G1 X120.64 Y95.18 E.06612
G1 X122.64 Y94.518 E.06605
G1 X124.73 Y94.259 E.06603
G1 X126.831 Y94.413 E.06605
G1 X128.861 Y94.973 E.06603
G1 X130.743 Y95.919 E.06604
G1 X132.404 Y97.214 E.06604
G1 X133.78 Y98.807 E.066
G1 X134.82 Y100.64 E.06608
G1 X135.482 Y102.64 E.06605
G1 X135.741 Y104.73 E.06603
G1 X135.587 Y106.831 E.06605
G1 X135.027 Y108.861 E.06603
G1 X134.081 Y110.743 E.06604
G1 X132.791 Y112.398 E.06579
G1 X131.194 Y113.779 E.0662
G1 X129.36 Y114.82 E.06612
