; generated by PrusaSlicer 2.6.1+linux-x64-GTK3 on 2023-11-17 at 20:07:40 UTC


;
;
; 

; external perimeters extrusion width = 0.45mm
; perimeters extrusion width = 0.45mm
; infill extrusion width = 0.45mm
; solid infill extrusion width = 0.45mm
; top infill extrusion width = 0.40mm
; first layer extrusion width = 0.42mm

M73 P0 R78
M201 X9000 Y9000 Z500 E10000 ; sets maximum accelerations, mm/sec^2
M203 X500 Y500 Z12 E120 ; sets maximum feedrates, mm / sec
M204 S2000 T1500 ; sets acceleration (S) and retract acceleration (R), mm/sec^2
M205 X10.00 Y10.00 Z0.20 E4.50 ; sets the jerk limits, mm/sec
M205 S0 T0 ; sets the minimum extruding and travel feed rate, mm/sec
;TYPE:Custom
M862.3 P "MK2.5S" ; printer model check
M862.1 P0.4 ; nozzle diameter check
M115 U3.13.1 ; tell printer latest fw version
G90 ; use absolute coordinates
M83 ; extruder relative mode
M104 S240 ; set extruder temp
M140 S85 ; set bed temp
M190 S85 ; wait for bed temp
M109 S240 ; wait for extruder temp
G28 W ; home all without mesh bed level
G80 ; mesh bed leveling

G1 Z0.2 F720
G1 Y-3 F1000 ; go outside print area
G92 E0
G1 X60 E9 F1000 ; intro line
G1 X100 E12.5 F1000 ; intro line

G92 E0
G21 ; set units to millimeters
G90 ; use absolute coordinates
M83 ; use relative distances for extrusion
M900 K0.08 ; Filament gcode LA 1.5
M900 K45 ; Filament gcode LA 1.0

M107
;LAYER_CHANGE
;Z:0.2
;HEIGHT:0.2
;BEFORE_LAYER_CHANGE
G92 E0.0
;0.2


G1 E-1 F2100
G1 Z.2 F720
;AFTER_LAYER_CHANGE
;0.2
G1 Z.4
G1 X97.424 Y96.765 F10800
G1 Z.2 F720
G1 E1 F2100
M204 S800
;TYPE:Skirt/Brim
;WIDTH:0.42
G1 F1200
G1 X98.16 Y96.145 E.03017
G1 X99.118 Y95.659 E.03368
G1 X100.318 Y95.397 E.03851
G1 X125.086 Y93.859 E.77808
G1 X127.408 Y94.013 E.07296
G1 X129.753 Y94.479 E.07496
G1 X132.019 Y95.247 E.07502
G1 X134.182 Y96.316 E.07565
G1 X136.196 Y97.669 E.07607
G1 X138.022 Y99.288 E.07652
G1 X139.634 Y101.163 E.07753
G1 X140.9 Y103.109 E.07279
G1 X141.264 Y104.099 E.03307
G1 X141.363 Y105.168 E.03366
G1 X141.194 Y106.166 E.03174
G1 X140.792 Y107.086 E.03148
G1 X139.661 Y108.801 E.06441
G1 X138.315 Y110.407 E.0657
G1 X136.738 Y111.896 E.068
G1 X135.146 Y113.085 E.0623
G1 X133.957 Y113.812 E.0437
G1 X132.675 Y114.466 E.04512
G1 X131.351 Y115.014 E.04493
G1 X130.091 Y115.427 E.04157
G1 X127.427 Y115.985 E.08534
G1 X124.755 Y116.14 E.08392
G1 X100.191 Y114.591 E.77172
G1 X99.119 Y114.341 E.03451
G1 X98.26 Y113.92 E.02999
G1 X97.507 Y113.32 E.03019
G1 X96.906 Y112.573 E.03006
G1 X96.394 Y111.466 E.03824
G1 X96.189 Y110.276 E.03786
G1 X96.198 Y99.565 E.33584
G1 X96.393 Y98.536 E.03284
G1 X96.842 Y97.529 E.03457
G1 X97.388 Y96.813 E.02823
M204 S1000
G1 X97.691 Y97.033 F10800
M204 S800
G1 F1200
G1 X98.365 Y96.461 E.02772
G1 X99.252 Y96.012 E.03117
G1 X100.354 Y95.773 E.03536
G1 X125.085 Y94.236 E.77692
G1 X127.358 Y94.387 E.07143
G1 X129.653 Y94.843 E.07336
G1 X131.877 Y95.596 E.07362
G1 X133.991 Y96.641 E.07394
G1 X135.967 Y97.968 E.07463
G1 X137.755 Y99.555 E.07496
G1 X139.334 Y101.391 E.07593
G1 X140.557 Y103.267 E.07022
G1 X140.897 Y104.186 E.03072
G1 X140.984 Y105.212 E.03228
G1 X140.796 Y106.173 E.0307
G1 X140.333 Y107.12 E.03305
G1 X139.219 Y108.761 E.06219
G1 X137.923 Y110.272 E.06242
G1 X136.494 Y111.608 E.06134
G1 X134.903 Y112.794 E.06222
G1 X132.649 Y114.062 E.08109
G1 X131.394 Y114.595 E.04275
G1 X130.128 Y115.023 E.0419
G1 X128.895 Y115.342 E.03993
G1 X127.427 Y115.604 E.04676
G1 X124.921 Y115.765 E.07874
G1 X100.227 Y114.215 E.77579
G1 X99.252 Y113.988 E.03139
G1 X98.466 Y113.604 E.02743
G1 X97.777 Y113.056 E.0276
G1 X97.226 Y112.374 E.02749
G1 X96.755 Y111.359 E.03508
G1 X96.565 Y110.263 E.03488
G1 X96.574 Y99.599 E.33436
G1 X96.72 Y98.762 E.02664
G1 X97.08 Y97.874 E.03004
G1 X97.656 Y97.082 E.03071
M204 S1000
; printing object 3DBenchy.stl id:0 copy 0
;WIPE_START
G1 F8640
G1 X98.365 Y96.461 E-.21763
G1 X99.252 Y96.012 E-.22956
G1 X100.354 Y95.773 E-.26037
G1 X101.618 Y95.694 E-.29244
;WIPE_END
G1 Z.4 F720
G1 X131.771 Y103.264 F10800
G1 Z.2 F720
G1 E1 F2100
M204 S800
;TYPE:Perimeter
;WIDTH:0.419999
G1 F1200
G1 X131.456 Y102.914 E.01476
G1 X131.026 Y102.734 E.01462
G1 X130.718 Y102.73 E.00966
G1 X130.358 Y102.848 E.01188
G1 X130.146 Y103.002 E.00822
G1 X129.741 Y103.509 E.02035
G1 X129.538 Y104.044 E.01794
G1 X129.353 Y103.457 E.0193
G1 X129.12 Y103.119 E.01287
G1 X128.792 Y102.875 E.01282
G1 X128.384 Y102.727 E.01361
G1 X127.934 Y102.719 E.01411
G1 X127.488 Y102.874 E.0148
G1 X127.15 Y103.208 E.0149
G1 X126.933 Y102.975 E.00998
G1 X126.488 Y102.745 E.01571
G1 X126.081 Y102.72 E.01279
G1 X125.716 Y102.854 E.01219
G1 X125.345 Y103.167 E.01522
G1 X125.174 Y103.419 E.00955
G1 X125.005 Y103.142 E.01017
G1 X124.605 Y102.822 E.01606
G1 X124.18 Y102.709 E.01379
G1 X123.73 Y102.769 E.01423
G1 X123.37 Y102.947 E.01259
G1 X123.07 Y103.252 E.01341
G1 X122.906 Y103.644 E.01332
G1 X122.902 Y104.096 E.01417
G1 X123.056 Y104.59 E.01622
G1 X123.708 Y105.754 E.04183
G1 X123.557 Y105.997 E.00897
G1 X123.294 Y106.56 E.01948
G1 X123.213 Y106.392 E.00585
G1 X122.948 Y106.051 E.01354
G1 X122.521 Y105.763 E.01615
G1 X122.288 Y105.677 E.00779
G1 X121.688 Y105.624 E.01889
G1 X121.316 Y105.721 E.01205
G1 X121.397 Y104.785 E.02946
G1 X121.36 Y104.255 E.01666
G1 X121.225 Y103.572 E.02183
G1 X121.061 Y103.091 E.01593
G1 X120.769 Y102.558 E.01906
G1 X120.403 Y102.11 E.01814
G1 X120.007 Y101.783 E.0161
G1 X119.528 Y101.531 E.01697
G1 X119.003 Y101.375 E.01717
G1 X118.352 Y101.284 E.02061
G1 X116.745 Y101.247 E.0504
G1 X116.372 Y101.282 E.01175
G1 X115.881 Y101.457 E.01634
G1 X115.539 Y101.763 E.01439
G1 X115.346 Y102.174 E.01424
;WIDTH:0.461926
G1 X115.319 Y102.347 E.0061
;WIDTH:0.503853
G1 X115.293 Y102.52 E.0067
;WIDTH:0.54578
G1 X115.266 Y102.693 E.00732
G1 X115.15 Y102.478 E.01021
;WIDTH:0.503853
G1 X115.033 Y102.262 E.00942
;WIDTH:0.461926
G1 X114.917 Y102.047 E.00851
;WIDTH:0.419999
G1 X114.524 Y101.612 E.01838
G1 X113.948 Y101.282 E.02081
G1 X113.298 Y101.12 E.021
M73 P0 R77
G1 X112.527 Y101.094 E.02419
G1 X111.799 Y101.213 E.02313
G1 X111.286 Y101.435 E.01753
G1 X110.76 Y101.861 E.02122
G1 X110.524 Y101.562 E.01194
G1 X110.188 Y101.357 E.01234
G1 X109.714 Y101.258 E.01518
G1 X106.541 Y101.269 E.09949
G1 X105.829 Y101.23 E.02236
G1 X105.258 Y101.387 E.01857
G1 X104.952 Y101.677 E.01322
G1 X104.744 Y102.009 E.01228
G1 X104.44 Y101.681 E.01402
G1 X104.038 Y101.409 E.01522
G1 X103.66 Y101.245 E.01292
G1 X103.126 Y101.121 E.01719
G1 X102.553 Y101.088 E.018
G1 X101.861 Y101.161 E.02182
G1 X101.211 Y101.372 E.02143
G1 X100.576 Y101.756 E.02327
G1 X100.143 Y102.174 E.01887
G1 X99.907 Y102.512 E.01293
G1 X99.917 Y100.264 E.07049
G1 X99.963 Y99.898 E.01157
G1 X100.07 Y99.587 E.01031
G1 X100.305 Y99.316 E.01125
G1 X100.504 Y99.225 E.00686
G1 X100.854 Y99.133 E.01135
G1 X124.158 Y97.717 E.73203
G1 X125.241 Y97.693 E.03396
G1 X126.036 Y97.726 E.02495
G1 X126.735 Y97.793 E.02202
G1 X127.309 Y97.873 E.01817
G1 X127.974 Y97.996 E.0212
G1 X128.861 Y98.217 E.02866
G1 X129.511 Y98.413 E.02129
G1 X130.2 Y98.665 E.023
G1 X130.754 Y98.894 E.0188
G1 X131.623 Y99.318 E.03032
G1 X132.157 Y99.61 E.01908
G1 X132.778 Y99.995 E.02291
G1 X133.346 Y100.386 E.02162
G1 X133.95 Y100.851 E.0239
G1 X134.502 Y101.324 E.02279
G1 X134.949 Y101.746 E.01927
G1 X135.5 Y102.321 E.02497
;WIDTH:0.465559
G1 X135.556 Y102.42 E.004
;WIDTH:0.511119
G1 X135.612 Y102.518 E.00439
;WIDTH:0.556679
G1 X135.667 Y102.617 E.00484
;WIDTH:0.602239
G1 X135.723 Y102.715 E.00525
;WIDTH:0.647798
G1 X135.779 Y102.814 E.00572
G1 X135.708 Y102.803 E.00361
;WIDTH:0.605092
G1 X135.638 Y102.792 E.00331
;WIDTH:0.562386
G1 X135.568 Y102.781 E.00306
;WIDTH:0.519679
G1 X135.306 Y102.74 E.01051
;WIDTH:0.469839
G1 X135.044 Y102.699 E.00941
;WIDTH:0.419999
G1 X132.998 Y102.7 E.06415
G1 X132.399 Y102.793 E.01901
G1 X131.938 Y103.039 E.01638
G1 X131.807 Y103.215 E.00688
M204 S1000
;WIPE_START
G1 F8640
G1 X131.456 Y102.914 E-.10677
G1 X131.026 Y102.734 E-.10764
G1 X130.718 Y102.73 E-.07112
G1 X130.358 Y102.848 E-.08748
G1 X130.146 Y103.002 E-.0605
G1 X129.741 Y103.509 E-.14983
G1 X129.538 Y104.044 E-.13213
G1 X129.353 Y103.457 E-.14211
G1 X129.12 Y103.119 E-.09479
G1 X128.954 Y102.996 E-.04763
;WIPE_END
G1 Z.4 F720
G1 X134.952 Y106.363 F10800
G1 Z.2 F720
G1 E1 F2100
M204 S800
G1 F1200
G1 X135.478 Y105.652 E.02773
G1 X135.989 Y104.909 E.02827
G1 X136.2 Y104.41 E.01699
G1 X136.229 Y103.85 E.01758
;WIDTH:0.460156
G1 X136.22 Y103.74 E.00383
;WIDTH:0.500313
G1 X136.211 Y103.631 E.00416
;WIDTH:0.540469
G1 X136.202 Y103.521 E.00457
;WIDTH:0.580626
G1 X136.192 Y103.411 E.00494
;WIDTH:0.620782
G1 X136.183 Y103.302 E.00526
G1 X136.254 Y103.36 E.00441
;WIDTH:0.575816
G1 X136.325 Y103.418 E.00406
;WIDTH:0.530849
G1 X136.396 Y103.476 E.00372
;WIDTH:0.485882
G1 X136.466 Y103.535 E.00337
;WIDTH:0.440915
G1 X136.673 Y103.803 E.01121
;WIDTH:0.419999
G1 X136.987 Y104.282 E.01796
G1 X137.279 Y104.794 E.01848
G1 X137.316 Y105.087 E.00926
G1 X137.24 Y105.296 E.00697
G1 X136.834 Y105.957 E.02432
G1 X136.098 Y107.054 E.04142
G1 X135.963 Y106.826 E.00831
G1 X135.748 Y106.622 E.00929
G1 X135.376 Y106.426 E.01318
G1 X135.011 Y106.371 E.01157
M204 S1000
;WIPE_START
G1 F8640
G1 X135.478 Y105.652 E-.19796
G1 X135.989 Y104.909 E-.20822
G1 X136.2 Y104.41 E-.1251
G1 X136.229 Y103.85 E-.12948
G1 X136.22 Y103.74 E-.02548
G1 X136.211 Y103.631 E-.02525
G1 X136.202 Y103.521 E-.02548
G1 X136.192 Y103.411 E-.0255
G1 X136.183 Y103.302 E-.02525
G1 X136.254 Y103.36 E-.02117
G1 X136.325 Y103.418 E-.02117
G1 X136.396 Y103.476 E-.02117
G1 X136.466 Y103.535 E-.02114
G1 X136.673 Y103.803 E-.07819
G1 X136.79 Y103.982 E-.04944
;WIPE_END
G1 Z.4 F720
G1 X115.29 Y103.407 F10800
G1 Z.2 F720
G1 E1 F2100
M204 S800
;WIDTH:0.533866
G1 F1200
G1 X115.305 Y103.921 E.02099
;WIDTH:0.503083
G1 X115.303 Y105.183 E.04829
G1 X115.173 Y104.909 E.0116
G1 X115.015 Y104.705 E.00987
G1 X114.741 Y104.474 E.01371
G1 X115.014 Y104.179 E.01538
G1 X115.159 Y103.905 E.01186
;WIDTH:0.533866
G1 X115.275 Y103.465 E.01858
M204 S1000
;WIPE_START
G1 F8640
G1 X115.305 Y103.921 E-.10552
G1 X115.303 Y105.183 E-.2914
G1 X115.173 Y104.909 E-.07003
G1 X115.015 Y104.705 E-.05958
G1 X114.741 Y104.474 E-.08275
G1 X115.014 Y104.179 E-.09281
G1 X115.159 Y103.905 E-.07158
G1 X115.275 Y103.465 E-.10507
;WIPE_END
G1 E-.12126 F2100
G1 Z.4 F720
G1 X103.655 Y105.774 F10800
G1 Z.2 F720
G1 E1 F2100
M204 S800
;WIDTH:0.419999
G1 F1200
G1 X103.341 Y105.834 E.01002
G1 X103.002 Y106.026 E.01222
G1 X102.809 Y106.222 E.00862
G1 X102.575 Y106.271 E.0075
G1 X102.27 Y106.203 E.0098
G1 X102.086 Y106.059 E.00733
G1 X101.94 Y105.707 E.01195
G1 X101.881 Y105.288 E.01327
G1 X101.869 Y104.746 E.017
G1 X101.937 Y104.201 E.01722
G1 X102.083 Y103.874 E.01123
G1 X102.339 Y103.694 E.00981
G1 X102.603 Y103.68 E.00829
G1 X103.235 Y104.03 E.02265
G1 X103.573 Y104.146 E.0112
G1 X103.925 Y104.18 E.01109
G1 X104.245 Y104.123 E.01019
G1 X104.636 Y103.898 E.01414
G1 X104.966 Y103.456 E.0173
G1 X105.184 Y103.615 E.00846
G1 X105.481 Y103.761 E.01038
G1 X105.957 Y103.823 E.01505
G1 X106.495 Y103.762 E.01698
G1 X106.51 Y106.553 E.08751
G1 X106.496 Y107.35 E.02499
G1 X106.517 Y107.836 E.01525
G1 X106.689 Y108.211 E.01294
G1 X107.044 Y108.515 E.01465
G1 X107.256 Y108.612 E.00731
G1 X107.66 Y108.696 E.01294
G1 X108.07 Y108.651 E.01293
G1 X108.451 Y108.485 E.01303
G1 X108.752 Y108.195 E.01311
G1 X108.936 Y107.843 E.01245
G1 X109.029 Y107.361 E.01539
G1 X109.014 Y103.794 E.11184
G1 X109.211 Y103.796 E.00618
G1 X109.804 Y103.751 E.01865
G1 X110.346 Y103.566 E.01796
G1 X110.642 Y103.302 E.01244
G1 X110.796 Y103.518 E.00832
G1 X111.002 Y103.728 E.00922
G1 X111.388 Y103.927 E.01362
G1 X111.349 Y103.97 E.00182
G1 X111.143 Y104.439 E.01606
G1 X111.116 Y104.968 E.01661
G1 X111.3 Y105.418 E.01524
G1 X111.57 Y105.682 E.01184
;WIDTH:0.454216
G1 X111.741 Y105.784 E.00681
;WIDTH:0.488432
G1 X111.913 Y105.886 E.00741
G1 X111.706 Y105.882 E.00767
;WIDTH:0.451996
G1 X111.111 Y106.029 E.02085
;WIDTH:0.419999
G1 X110.702 Y106.358 E.01646
G1 X110.551 Y106.574 E.00826
G1 X110.47 Y106.783 E.00703
G1 X110.418 Y107.196 E.01305
G1 X110.481 Y107.591 E.01254
G1 X110.625 Y107.924 E.01138
G1 X110.907 Y108.274 E.01409
G1 X111.32 Y108.549 E.01556
G1 X112.035 Y108.783 E.02359
G1 X112.915 Y108.839 E.02765
G1 X113.412 Y108.776 E.01571
G1 X114.172 Y108.501 E.02534
G1 X114.65 Y108.148 E.01863
G1 X115.075 Y107.635 E.02089
G1 X115.329 Y107.128 E.01778
G1 X115.372 Y107.697 E.01789
G1 X115.536 Y108.114 E.01405
G1 X115.871 Y108.502 E.01607
G1 X116.206 Y108.656 E.01156
G1 X116.56 Y108.702 E.01119
G1 X117.127 Y108.664 E.01782
G1 X117.878 Y108.67 E.02355
G1 X118.451 Y108.638 E.01799
G1 X118.953 Y108.559 E.01593
G1 X119.446 Y108.408 E.01617
G1 X119.925 Y108.117 E.01757
G1 X120.163 Y107.88 E.01053
G1 X120.251 Y108.207 E.01062
G1 X120.54 Y108.626 E.01596
G1 X120.714 Y108.786 E.00741
G1 X121.257 Y109.072 E.01924
G1 X121.652 Y109.147 E.01261
G1 X122.179 Y109.097 E.0166
G1 X122.554 Y108.944 E.0127
G1 X122.972 Y108.622 E.01654
G1 X123.157 Y108.312 E.01132
G1 X123.218 Y108.424 E.004
G1 X123.419 Y108.612 E.00863
G1 X123.632 Y108.738 E.00776
G1 X123.96 Y108.825 E.01064
G1 X124.401 Y108.779 E.0139
G1 X124.758 Y108.573 E.01292
G1 X125.109 Y108.076 E.01908
G1 X125.351 Y108.476 E.01466
G1 X125.643 Y108.722 E.01197
G1 X125.971 Y108.853 E.01107
G1 X126.326 Y108.873 E.01115
;WIDTH:0.439297
G1 X126.802 Y108.767 E.01607
;WIDTH:0.483411
G1 X127.028 Y108.614 E.01
;WIDTH:0.527524
G1 X127.254 Y108.462 E.01097
;WIDTH:0.547458
G1 X127.44 Y108.181 E.01414
;WIDTH:0.575176
G1 X127.506 Y107.946 E.0108
;WIDTH:0.602893
G1 X127.571 Y107.711 E.01135
G1 X127.536 Y107.513 E.00936
;WIDTH:0.564571
G1 X127.501 Y107.315 E.00872
;WIDTH:0.526397
G1 X127.315 Y106.827 E.02099
G1 X127.11 Y106.519 E.01487
;WIDTH:0.490931
G1 X126.906 Y106.212 E.01373
;WIDTH:0.455465
G1 X126.701 Y105.905 E.01266
;WIDTH:0.419999
G1 X126.591 Y105.721 E.00672
G1 X127.116 Y104.776 E.0339
G1 X127.408 Y105.564 E.02635
;WIDTH:0.455465
G1 X127.521 Y105.915 E.01265
;WIDTH:0.490931
G1 X127.635 Y106.266 E.01375
;WIDTH:0.526397
G1 X127.957 Y107.161 E.03824
;WIDTH:0.564571
G1 X128.055 Y107.438 E.01274
;WIDTH:0.602893
G1 X128.153 Y107.715 E.01368
G1 X127.96 Y108.239 E.026
;WIDTH:0.564939
G1 X127.742 Y108.709 E.02249
G1 X127.589 Y108.786 E.00743
;WIDTH:0.528487
G1 X127.436 Y108.863 E.00692
;WIDTH:0.492035
G1 X127.282 Y108.939 E.00641
;WIDTH:0.455583
G1 X126.92 Y109.163 E.01461
;WIDTH:0.435038
G1 X126.679 Y109.409 E.01123
;WIDTH:0.419999
G1 X126.529 Y109.755 E.01182
G1 X126.526 Y110.3 E.01709
G1 X126.693 Y110.743 E.01484
G1 X127.013 Y111.124 E.0156
G1 X127.247 Y111.269 E.00863
;WIDTH:0.459882
G1 X127.444 Y111.333 E.00718
;WIDTH:0.499765
G1 X127.642 Y111.398 E.00792
;WIDTH:0.539648
G1 X127.84 Y111.463 E.00861
G1 X128.437 Y111.361 E.02502
;WIDTH:0.549233
G1 X129.036 Y111.14 E.02688
G1 X129.103 Y111.076 E.0039
;WIDTH:0.505939
G1 X129.17 Y111.012 E.00357
;WIDTH:0.462645
G1 X129.554 Y110.645 E.01854
;WIDTH:0.419999
G1 X129.894 Y110.139 E.01911
G1 X130.307 Y109.181 E.03271
G1 X130.562 Y108.524 E.0221
G1 X131.524 Y105.834 E.08957
G1 X131.854 Y104.78 E.03463
G1 X132.007 Y104.923 E.00657
G1 X132.274 Y105.063 E.00945
G1 X132.795 Y105.154 E.01658
G1 X132.378 Y105.637 E.02001
;WIDTH:0.459463
G1 X131.77 Y106.436 E.03478
G1 X131.515 Y106.974 E.02062
;WIDTH:0.421805
G1 X131.453 Y107.183 E.00687
G1 X131.436 Y107.793 E.01923
;WIDTH:0.419999
G1 X131.619 Y108.292 E.01666
G1 X131.943 Y108.662 E.01542
G1 X132.361 Y108.842 E.01427
G1 X132.589 Y108.882 E.00726
G1 X134.365 Y108.832 E.05571
G1 X133.429 Y109.554 E.03706
G1 X132.537 Y110.161 E.03383
G1 X131.431 Y110.781 E.03975
G1 X130.563 Y111.19 E.03009
G1 X129.998 Y111.417 E.01909
;WIDTH:0.44676
G1 X129.721 Y111.5 E.00971
;WIDTH:0.473521
G1 X129.444 Y111.583 E.01035
;WIDTH:0.506184
G1 X129.199 Y111.641 E.0097
;WIDTH:0.538847
G1 X128.195 Y111.902 E.04278
;WIDTH:0.526253
G1 X127.871 Y111.993 E.01353
;WIDTH:0.476444
G1 X127.548 Y112.085 E.01211
;WIDTH:0.426634
G1 X126.99 Y112.178 E.01805
;WIDTH:0.419999
G1 X126.385 Y112.249 E.0191
G1 X125.758 Y112.294 E.01971
G1 X124.991 Y112.312 E.02406
G1 X124.183 Y112.285 E.02535
G1 X101.234 Y110.89 E.72088
G1 X100.712 Y110.84 E.01644
