; generated by PrusaSlicer 2.6.1+linux-x64-GTK3 on 2023-11-17 at 20:20:59 UTC


;
;

;
;

;
;
; 

; external perimeters extrusion width = 0.45mm
; perimeters extrusion width = 0.45mm
; infill extrusion width = 0.45mm
; solid infill extrusion width = 0.45mm
; top infill extrusion width = 0.40mm
; first layer extrusion width = 0.42mm

M73 P0 R110
M201 X2500 Y2500 Z400 E5000 ; sets maximum accelerations, mm/sec^2
M203 X180 Y180 Z12 E80 ; sets maximum feedrates, mm / sec
M204 P2000 R1250 T2500 ; sets acceleration (P, T) and retract acceleration (R), mm/sec^2
M205 X8.00 Y8.00 Z2.00 E10.00 ; sets the jerk limits, mm/sec
M205 S0 T0 ; sets the minimum extruding and travel feed rate, mm/sec
;TYPE:Custom
M862.3 P "MINI" ; printer model check
G90 ; use absolute coordinates
M83 ; extruder relative mode
M104 S170 ; set extruder temp for bed leveling
M140 S100 ; set bed temp
M109 R170 ; wait for bed leveling temp
M190 S100 ; wait for bed temp
M204 T1250 ; set travel acceleration
G28 ; home all without mesh bed level
G29 ; mesh bed leveling 
M204 T2500 ; restore travel acceleration
M104 S260 ; set extruder temp
G92 E0
G1 Y-2 X179 F2400
G1 Z3 F720
M109 S260 ; wait for extruder temp

; intro line
G1 X170 F1000
G1 Z0.2 F720
G1 X110 E8 F900
G1 X40 E10 F700
G92 E0

M221 S95 ; set flow
G21 ; set units to millimeters
G90 ; use absolute coordinates
M83 ; use relative distances for extrusion
M900 K0.2 ; Filament gcode

M107
;LAYER_CHANGE
;Z:0.2
;HEIGHT:0.2
;BEFORE_LAYER_CHANGE
G92 E0.0
;0.2


G1 E-2.7 F4200
M73 P0 R109
G1 Z.2 F720
;AFTER_LAYER_CHANGE
;0.2
G1 Z.4
G1 X82.209 Y82.602 F9000
G1 Z.2 F720
G1 E2.7 F2400
M204 P600
;TYPE:Skirt/Brim
;WIDTH:0.42
G1 F900
G1 X83.806 Y81.221 E.0662
G1 X85.64 Y80.18 E.06612
G1 X87.64 Y79.518 E.06605
G1 X89.73 Y79.259 E.06603
G1 X91.831 Y79.413 E.06605
G1 X93.861 Y79.973 E.06603
G1 X95.743 Y80.919 E.06604
G1 X97.404 Y82.214 E.06604
G1 X98.78 Y83.807 E.066
G1 X99.82 Y85.64 E.06608
G1 X100.482 Y87.64 E.06605
G1 X100.741 Y89.73 E.06603
G1 X100.587 Y91.831 E.06605
G1 X100.027 Y93.861 E.06603
G1 X99.081 Y95.743 E.06604
G1 X97.791 Y97.398 E.06579
G1 X96.194 Y98.779 E.0662
G1 X94.36 Y99.82 E.06612
G1 X92.36 Y100.482 E.06605
G1 X90.27 Y100.741 E.06603
G1 X88.169 Y100.587 E.06605
G1 X86.139 Y100.027 E.06603
G1 X84.257 Y99.081 E.06604
G1 X82.596 Y97.786 E.06604
G1 X81.219 Y96.192 E.06605
G1 X80.182 Y94.364 E.0659
G1 X79.52 Y92.366 E.066
G1 X79.259 Y90.272 E.06616
G1 X79.412 Y88.174 E.06596
G1 X79.972 Y86.142 E.06609
G1 X80.919 Y84.258 E.06611
G1 X82.172 Y82.649 E.06394
M204 P1000
G1 X82.476 Y82.89 F9000
M204 P600
G1 F900
G1 X82.625 Y82.701 E.00755
G1 X84.047 Y81.511 E.05814
G1 X85.818 Y80.513 E.06374
G1 X87.749 Y79.879 E.06372
G1 X89.767 Y79.634 E.06374
G1 X91.794 Y79.788 E.06374
G1 X93.751 Y80.334 E.0637
G1 X95.565 Y81.252 E.06375
G1 X97.165 Y82.506 E.06374
G1 X98.488 Y84.046 E.06366
G1 X99.487 Y85.818 E.06378
G1 X100.121 Y87.749 E.06372
G1 X100.366 Y89.767 E.06374
G1 X100.212 Y91.794 E.06374
G1 X99.666 Y93.751 E.0637
G1 X98.748 Y95.565 E.06375
G1 X97.375 Y97.299 E.06935
G1 X95.953 Y98.489 E.05814
G1 X94.182 Y99.487 E.06374
G1 X92.251 Y100.121 E.06372
G1 X90.233 Y100.366 E.06374
G1 X88.206 Y100.212 E.06374
G1 X86.249 Y99.666 E.0637
G1 X84.435 Y98.748 E.06375
G1 X82.835 Y97.494 E.06374
G1 X81.511 Y95.953 E.0637
G1 X80.515 Y94.186 E.0636
G1 X79.881 Y92.257 E.06367
G1 X79.635 Y90.234 E.0639
G1 X79.788 Y88.211 E.06361
G1 X80.333 Y86.251 E.06379
G1 X81.252 Y84.435 E.06382
G1 X82.439 Y82.937 E.05993
M204 P1000
; printing object cylinder_hollow_100x8.stl id:0 copy 0
G1 E-2.7 F4200
G1 Z.4 F720
G1 X87.117 Y96.93 F9000
G1 Z.2 F720
G1 E2.7 F2400
M204 P600
;TYPE:External perimeter
;WIDTH:0.567849
G1 F900
G1 X85.894 Y96.284 E.06037
G1 X85.766 Y96.198 E.00673
G1 X84.747 Y95.362 E.05753
G1 X84.638 Y95.253 E.00673
G1 X83.802 Y94.234 E.05753
G1 X83.716 Y94.106 E.00673
G1 X83.095 Y92.944 E.05751
G1 X83.036 Y92.801 E.00675
G1 X82.653 Y91.54 E.05752
G1 X82.623 Y91.389 E.00672
G1 X82.494 Y90.077 E.05754
G1 X82.494 Y89.923 E.00672
G1 X82.623 Y88.611 E.05754
G1 X82.653 Y88.46 E.00672
G1 X83.036 Y87.199 E.05752
G1 X83.095 Y87.056 E.00675
G1 X83.716 Y85.894 E.05751
G1 X83.802 Y85.766 E.00673
G1 X84.638 Y84.747 E.05753
G1 X84.747 Y84.638 E.00673
G1 X85.766 Y83.802 E.05753
G1 X85.894 Y83.716 E.00673
G1 X87.056 Y83.095 E.05751
G1 X87.199 Y83.036 E.00675
G1 X88.46 Y82.653 E.05752
G1 X88.611 Y82.623 E.00672
G1 X89.923 Y82.494 E.05754
G1 X90.077 Y82.494 E.00672
G1 X91.389 Y82.623 E.05754
G1 X91.54 Y82.653 E.00672
G1 X92.801 Y83.036 E.05752
G1 X92.944 Y83.095 E.00675
G1 X94.106 Y83.716 E.05751
G1 X94.234 Y83.802 E.00673
G1 X95.253 Y84.638 E.05753
G1 X95.362 Y84.747 E.00673
G1 X96.198 Y85.766 E.05753
G1 X96.284 Y85.894 E.00673
G1 X96.905 Y87.056 E.05751
G1 X96.964 Y87.199 E.00675
G1 X97.347 Y88.46 E.05752
G1 X97.377 Y88.611 E.00672
G1 X97.506 Y89.923 E.05754
;WIDTH:0.569114
G1 X97.511 Y90.026 E.00451
G1 X97.506 Y90.077 E.00224
;WIDTH:0.567849
G1 X97.377 Y91.389 E.05754
G1 X97.347 Y91.54 E.00672
G1 X96.964 Y92.801 E.05752
G1 X96.905 Y92.944 E.00675
G1 X96.284 Y94.106 E.05751
G1 X96.198 Y94.234 E.00673
G1 X95.362 Y95.253 E.05753
G1 X95.253 Y95.362 E.00673
G1 X94.234 Y96.198 E.05753
G1 X94.106 Y96.284 E.00673
G1 X92.944 Y96.905 E.05751
G1 X92.801 Y96.964 E.00675
G1 X91.54 Y97.347 E.05752
G1 X91.389 Y97.377 E.00672
G1 X90.077 Y97.506 E.05754
G1 X89.923 Y97.506 E.00672
G1 X88.611 Y97.377 E.05754
G1 X88.46 Y97.347 E.00672
G1 X87.172 Y96.953 E.05879
M204 P1000
G1 X87.076 Y96.532 F9000
G1 E-2.7 F4200
G1 Z.4 F720
G1 X92.633 Y83.533 F9000
G1 Z.2 F720
G1 E2.7 F2400
M204 P600
;WIDTH:0.56785
G1 F900
G1 X93.859 Y84.179 E.06049
G1 X94.92 Y85.044 E.05975
G1 X95.792 Y86.099 E.05974
G1 X96.442 Y87.304 E.05976
G1 X96.845 Y88.612 E.05974
G1 X96.984 Y89.974 E.05976
G1 X96.855 Y91.337 E.05976
G1 X96.462 Y92.649 E.05978
G1 X95.821 Y93.859 E.05977
G1 X94.956 Y94.92 E.05975
G1 X93.901 Y95.792 E.05974
G1 X92.696 Y96.442 E.05976
G1 X91.388 Y96.845 E.05974
G1 X90.026 Y96.984 E.05976
G1 X88.663 Y96.855 E.05976
G1 X87.351 Y96.462 E.05978
G1 X86.141 Y95.821 E.05977
G1 X85.08 Y94.956 E.05975
G1 X84.208 Y93.901 E.05974
G1 X83.558 Y92.696 E.05976
G1 X83.155 Y91.388 E.05974
G1 X83.016 Y90.026 E.05976
G1 X83.145 Y88.663 E.05976
G1 X83.538 Y87.351 E.05978
G1 X84.179 Y86.141 E.05977
G1 X85.044 Y85.08 E.05975
G1 X86.099 Y84.208 E.05974
G1 X87.304 Y83.558 E.05976
G1 X88.612 Y83.155 E.05974
G1 X89.974 Y83.016 E.05976
G1 X91.337 Y83.145 E.05976
G1 X92.575 Y83.516 E.05641
M204 P1000
G1 X92.949 Y83.288 F9000
; stop printing object cylinder_hollow_100x8.stl id:0 copy 0
;LAYER_CHANGE
;Z:0.4
;HEIGHT:0.2
;BEFORE_LAYER_CHANGE
G92 E0.0
;0.4


G1 E-2.7 F4200
G1 Z.4 F720
;AFTER_LAYER_CHANGE
;0.4
G1 Z.6
G1 X94.256 Y80.172 F9000
G1 Z.4 F720
G1 E2.7 F2400
;TYPE:Skirt/Brim
;WIDTH:0.42
G1 F1023
G1 X95.743 Y80.919 E.05218
G1 X97.404 Y82.214 E.06604
G1 X98.78 Y83.807 E.066
G1 X99.82 Y85.64 E.06608
G1 X100.482 Y87.64 E.06605
G1 X100.741 Y89.73 E.06603
G1 X100.587 Y91.831 E.06605
G1 X100.027 Y93.861 E.06603
G1 X99.081 Y95.743 E.06604
G1 X97.791 Y97.398 E.06579
G1 X96.194 Y98.779 E.0662
G1 X94.36 Y99.82 E.06612
G1 X92.36 Y100.482 E.06605
G1 X90.27 Y100.741 E.06603
G1 X88.169 Y100.587 E.06605
G1 X86.139 Y100.027 E.06603
G1 X84.257 Y99.081 E.06604
G1 X82.596 Y97.786 E.06604
G1 X81.219 Y96.192 E.06605
G1 X80.182 Y94.364 E.0659
G1 X79.52 Y92.366 E.066
G1 X79.259 Y90.272 E.06616
G1 X79.412 Y88.174 E.06596
G1 X79.972 Y86.142 E.06609
G1 X80.919 Y84.258 E.06611
G1 X82.209 Y82.602 E.06582
G1 X83.806 Y81.221 E.0662
G1 X85.64 Y80.18 E.06612
G1 X87.64 Y79.518 E.06605
G1 X89.73 Y79.259 E.06603
G1 X91.831 Y79.413 E.06605
G1 X93.861 Y79.973 E.06603
G1 X94.203 Y80.145 E.012
G1 X94.034 Y80.477 F9000
G1 F1023
G1 X95.565 Y81.252 E.0538
G1 X97.165 Y82.506 E.06374
G1 X98.488 Y84.046 E.06366
G1 X99.487 Y85.818 E.06378
G1 X100.121 Y87.749 E.06372
G1 X100.366 Y89.767 E.06374
G1 X100.212 Y91.794 E.06374
G1 X99.666 Y93.751 E.0637
G1 X98.748 Y95.565 E.06375
G1 X97.375 Y97.299 E.06935
G1 X95.953 Y98.489 E.05814
G1 X94.182 Y99.487 E.06374
G1 X92.251 Y100.121 E.06372
G1 X90.233 Y100.366 E.06374
G1 X88.206 Y100.212 E.06374
G1 X86.249 Y99.666 E.0637
G1 X84.435 Y98.748 E.06375
G1 X82.835 Y97.494 E.06374
G1 X81.511 Y95.953 E.0637
G1 X80.515 Y94.186 E.0636
G1 X79.881 Y92.257 E.06367
G1 X79.635 Y90.234 E.0639
G1 X79.788 Y88.211 E.06361
G1 X80.333 Y86.251 E.06379
G1 X81.252 Y84.435 E.06382
G1 X82.625 Y82.701 E.06935
G1 X84.047 Y81.511 E.05814
G1 X85.818 Y80.513 E.06374
G1 X87.749 Y79.879 E.06372
G1 X89.767 Y79.634 E.06374
G1 X91.794 Y79.788 E.06374
G1 X93.751 Y80.334 E.0637
G1 X93.981 Y80.45 E.00808
; printing object cylinder_hollow_100x8.stl id:0 copy 0
G1 E-2.7 F4200
G1 Z.6 F720
G1 X87.158 Y96.834 F9000
G1 Z.4 F720
G1 E2.7 F2400
M204 P900
;TYPE:Perimeter
;WIDTH:0.360769
G1 F1023
G1 X85.96 Y96.202 E.0358
G1 X85.816 Y96.106 E.00457
G1 X84.828 Y95.295 E.03378
G1 X84.705 Y95.172 E.0046
G1 X83.894 Y94.184 E.03378
G1 X83.798 Y94.04 E.00457
G1 X83.195 Y92.912 E.0338
G1 X83.129 Y92.752 E.00457
G1 X82.758 Y91.529 E.03378
G1 X82.724 Y91.359 E.00458
G1 X82.599 Y90.087 E.03378
G1 X82.599 Y89.913 E.0046
G1 X82.724 Y88.641 E.03378
G1 X82.758 Y88.471 E.00458
G1 X83.129 Y87.248 E.03378
G1 X83.195 Y87.088 E.00457
G1 X83.798 Y85.96 E.0338
G1 X83.894 Y85.816 E.00457
G1 X84.705 Y84.828 E.03378
G1 X84.828 Y84.705 E.0046
G1 X85.816 Y83.894 E.03378
G1 X85.96 Y83.798 E.00457
G1 X87.088 Y83.195 E.0338
G1 X87.248 Y83.129 E.00457
G1 X88.471 Y82.758 E.03378
G1 X88.641 Y82.724 E.00458
G1 X89.914 Y82.599 E.03381
G1 X90.087 Y82.599 E.00457
G1 X91.359 Y82.724 E.03378
G1 X91.529 Y82.758 E.00458
G1 X92.752 Y83.129 E.03378
G1 X92.912 Y83.195 E.00457
G1 X94.04 Y83.798 E.0338
G1 X94.184 Y83.894 E.00457
G1 X95.172 Y84.705 E.03378
G1 X95.295 Y84.828 E.0046
G1 X96.106 Y85.816 E.03378
G1 X96.202 Y85.96 E.00457
G1 X96.805 Y87.088 E.0338
G1 X96.871 Y87.248 E.00457
G1 X97.242 Y88.471 E.03378
G1 X97.276 Y88.641 E.00458
G1 X97.401 Y89.913 E.03378
;WIDTH:0.362518
G1 X97.407 Y90.016 E.00274
G1 X97.401 Y90.087 E.00189
;WIDTH:0.360769
G1 X97.276 Y91.359 E.03378
G1 X97.242 Y91.529 E.00458
G1 X96.871 Y92.752 E.03378
G1 X96.805 Y92.912 E.00457
G1 X96.202 Y94.04 E.0338
G1 X96.106 Y94.184 E.00457
G1 X95.295 Y95.172 E.03378
G1 X95.172 Y95.295 E.0046
G1 X94.184 Y96.106 E.03378
G1 X94.04 Y96.202 E.00457
G1 X92.912 Y96.805 E.0338
G1 X92.752 Y96.871 E.00457
G1 X91.529 Y97.242 E.03378
G1 X91.359 Y97.276 E.00458
G1 X90.087 Y97.401 E.03378
G1 X89.913 Y97.401 E.0046
G1 X88.641 Y97.276 E.03378
G1 X88.471 Y97.242 E.00458
G1 X87.213 Y96.857 E.03477
M204 P1000
G1 E-2.7 F4200
G1 Z.6 F720
G1 X92.692 Y83.446 F9000
G1 Z.4 F720
G1 E2.7 F2400
M204 P900
;WIDTH:0.36077
G1 F1023
G1 X93.89 Y84.078 E.0358
G1 X94.971 Y84.951 E.03672
G1 X95.86 Y86.018 E.03671
G1 X96.524 Y87.237 E.03669
G1 X96.938 Y88.563 E.03671
G1 X97.085 Y89.945 E.03673
G1 X96.96 Y91.328 E.0367
G1 X96.567 Y92.66 E.0367
G1 X95.922 Y93.89 E.03671
G1 X95.049 Y94.971 E.03672
G1 X93.982 Y95.86 E.03671
G1 X92.763 Y96.524 E.03669
G1 X91.437 Y96.938 E.03671
G1 X90.055 Y97.085 E.03673
G1 X88.672 Y96.96 E.0367
G1 X87.34 Y96.567 E.0367
G1 X86.11 Y95.922 E.03671
G1 X85.029 Y95.049 E.03672
G1 X84.14 Y93.982 E.03671
G1 X83.476 Y92.763 E.03669
G1 X83.062 Y91.437 E.03671
G1 X82.915 Y90.055 E.03673
G1 X83.04 Y88.672 E.0367
G1 X83.433 Y87.34 E.0367
G1 X84.078 Y86.11 E.03671
G1 X84.951 Y85.029 E.03672
G1 X86.018 Y84.14 E.03671
G1 X87.237 Y83.476 E.03669
G1 X88.563 Y83.062 E.03671
G1 X89.945 Y82.915 E.03673
G1 X91.328 Y83.04 E.0367
G1 X92.636 Y83.426 E.03604
M204 P1000
G1 X92.555 Y83.78 F9000
M204 P800
;TYPE:External perimeter
;WIDTH:0.449999
G1 F1023
G1 X93.719 Y84.398 E.04461
G1 X94.741 Y85.231 E.04463
G1 X95.58 Y86.248 E.04463
G1 X96.205 Y87.408 E.0446
G1 X96.591 Y88.669 E.04464
G1 X96.724 Y89.98 E.0446
G1 X96.599 Y91.292 E.04461
G1 X96.22 Y92.555 E.04463
G1 X95.602 Y93.719 E.04461
G1 X94.769 Y94.741 E.04463
G1 X93.752 Y95.58 E.04463
G1 X92.592 Y96.205 E.0446
G1 X91.331 Y96.591 E.04464
G1 X90.02 Y96.724 E.0446
G1 X88.708 Y96.599 E.04461
G1 X87.445 Y96.22 E.04463
G1 X86.281 Y95.602 E.04461
G1 X85.259 Y94.769 E.04463
G1 X84.42 Y93.752 E.04463
G1 X83.795 Y92.592 E.0446
G1 X83.409 Y91.331 E.04464
G1 X83.276 Y90.02 E.0446
G1 X83.401 Y88.708 E.04461
G1 X83.78 Y87.445 E.04463
G1 X84.398 Y86.281 E.04461
G1 X85.231 Y85.259 E.04463
G1 X86.248 Y84.42 E.04463
G1 X87.408 Y83.795 E.0446
G1 X88.669 Y83.409 E.04464
G1 X89.98 Y83.276 E.0446
G1 X91.292 Y83.401 E.04461
G1 X92.497 Y83.763 E.04259
M204 P1000
G1 X92.871 Y83.536 F9000
G1 E-2.7 F4200
G1 Z.6 F720
G1 X87.012 Y97.175 F9000
G1 Z.4 F720
G1 E2.7 F2400
M204 P800
G1 F1023

G1 X85.681 Y96.464 E.05108
G1 X84.503 Y95.497 E.05159
G1 X83.536 Y94.319 E.05159
G1 X82.818 Y92.975 E.05158
G1 X82.375 Y91.517 E.05158
G1 X82.226 Y90 E.0516
G1 X82.375 Y88.483 E.0516
G1 X82.818 Y87.025 E.05158
G1 X83.536 Y85.681 E.05158
G1 X84.503 Y84.503 E.05159
G1 X85.681 Y83.536 E.05159
G1 X87.025 Y82.818 E.05158
G1 X88.483 Y82.375 E.05158
G1 X90.005 Y82.227 E.05176
G1 X91.517 Y82.375 E.05142
G1 X92.975 Y82.818 E.05158
G1 X94.319 Y83.536 E.05158
G1 X95.497 Y84.503 E.05159
G1 X96.464 Y85.681 E.05159
G1 X97.182 Y87.025 E.05158
G1 X97.625 Y88.483 E.05158
G1 X97.769 Y90.051 E.0533
G1 X97.625 Y91.517 E.04986
G1 X97.182 Y92.975 E.05158
G1 X96.464 Y94.319 E.05158
G1 X95.497 Y95.497 E.05159
G1 X94.319 Y96.464 E.05159
G1 X92.975 Y97.182 E.05158
G1 X91.517 Y97.625 E.05158
G1 X90 Y97.774 E.0516
G1 X88.483 Y97.625 E.0516
G1 X87.069 Y97.195 E.05003

M204 P1000
G1 X86.96 Y96.779 F9000
; stop printing object cylinder_hollow_100x8.stl id:0 copy 0
;LAYER_CHANGE
;Z:0.6
;HEIGHT:0.2
;BEFORE_LAYER_CHANGE
G92 E0.0
;0.6


G1 E-2.7 F4200
G1 Z.6 F720
;AFTER_LAYER_CHANGE
;0.6
G1 X85.745 Y99.829 F9000
G1 E2.7 F2400
;TYPE:Skirt/Brim
;WIDTH:0.42
G1 F1015
G1 X84.257 Y99.081 E.05222
G1 X82.596 Y97.786 E.06604
G1 X81.219 Y96.192 E.06605
G1 X80.182 Y94.364 E.0659
G1 X79.52 Y92.366 E.066
G1 X79.259 Y90.272 E.06616
G1 X79.412 Y88.174 E.06596
G1 X79.972 Y86.142 E.06609
G1 X80.919 Y84.258 E.06611
G1 X82.209 Y82.602 E.06582
G1 X83.806 Y81.221 E.0662
G1 X85.64 Y80.18 E.06612
G1 X87.64 Y79.518 E.06605
G1 X89.73 Y79.259 E.06603
G1 X91.831 Y79.413 E.06605
G1 X93.861 Y79.973 E.06603
G1 X95.743 Y80.919 E.06604
G1 X97.404 Y82.214 E.06604
G1 X98.78 Y83.807 E.066
G1 X99.82 Y85.64 E.06608
G1 X100.482 Y87.64 E.06605
G1 X100.741 Y89.73 E.06603
G1 X100.587 Y91.831 E.06605
G1 X100.027 Y93.861 E.06603
G1 X99.081 Y95.743 E.06604
G1 X97.791 Y97.398 E.06579
G1 X96.194 Y98.779 E.0662
G1 X94.36 Y99.82 E.06612
G1 X92.36 Y100.482 E.06605
G1 X90.27 Y100.741 E.06603
G1 X88.169 Y100.587 E.06605
G1 X86.139 Y100.027 E.06603
G1 X85.799 Y99.856 E.01193
G1 X85.967 Y99.523 F9000
G1 F1015
G1 X84.435 Y98.748 E.05383
G1 X82.835 Y97.494 E.06374
G1 X81.511 Y95.953 E.0637
G1 X80.515 Y94.186 E.0636
G1 X79.881 Y92.257 E.06367
G1 X79.635 Y90.234 E.0639
G1 X79.788 Y88.211 E.06361
G1 X80.333 Y86.251 E.06379
G1 X81.252 Y84.435 E.06382
G1 X82.625 Y82.701 E.06935
G1 X84.047 Y81.511 E.05814
G1 X85.818 Y80.513 E.06374
G1 X87.749 Y79.879 E.06372
G1 X89.767 Y79.634 E.06374
G1 X91.794 Y79.788 E.06374
G1 X93.751 Y80.334 E.0637
G1 X95.565 Y81.252 E.06375
G1 X97.165 Y82.506 E.06374
G1 X98.488 Y84.046 E.06366
G1 X99.487 Y85.818 E.06378
G1 X100.121 Y87.749 E.06372
G1 X100.366 Y89.767 E.06374
G1 X100.212 Y91.794 E.06374
G1 X99.666 Y93.751 E.0637
G1 X98.748 Y95.565 E.06375
G1 X97.375 Y97.299 E.06935
G1 X95.953 Y98.489 E.05814
G1 X94.182 Y99.487 E.06374
G1 X92.251 Y100.121 E.06372
G1 X90.233 Y100.366 E.06374
G1 X88.206 Y100.212 E.06374
G1 X86.249 Y99.666 E.0637
G1 X86.021 Y99.55 E.00802
; printing object cylinder_hollow_100x8.stl id:0 copy 0
G1 X87.158 Y96.834 F9000
M204 P900
;TYPE:Perimeter
;WIDTH:0.360769
G1 F1015

G1 X85.96 Y96.202 E.0358
G1 X85.816 Y96.106 E.00457
G1 X84.828 Y95.295 E.03378
G1 X84.705 Y95.172 E.0046
G1 X83.894 Y94.184 E.03378
G1 X83.798 Y94.04 E.00457
G1 X83.195 Y92.912 E.0338
G1 X83.129 Y92.752 E.00457
G1 X82.758 Y91.529 E.03378
G1 X82.724 Y91.359 E.00458
G1 X82.599 Y90.087 E.03378
G1 X82.599 Y89.913 E.0046
G1 X82.724 Y88.641 E.03378
G1 X82.758 Y88.471 E.00458
G1 X83.129 Y87.248 E.03378
