; generated by PrusaSlicer 2.6.1+linux-x64-GTK3 on 2023-11-17 at 20:17:54 UTC


;
;

;
;

;
;
; 

; external perimeters extrusion width = 0.45mm
; perimeters extrusion width = 0.45mm
; infill extrusion width = 0.45mm
; solid infill extrusion width = 0.45mm
; top infill extrusion width = 0.40mm
; first layer extrusion width = 0.42mm

M73 P0 R7
M201 X2500 Y2500 Z400 E5000 ; sets maximum accelerations, mm/sec^2
M203 X180 Y180 Z12 E80 ; sets maximum feedrates, mm / sec
M204 P2000 R1250 T2500 ; sets acceleration (P, T) and retract acceleration (R), mm/sec^2
M205 X8.00 Y8.00 Z2.00 E10.00 ; sets the jerk limits, mm/sec
M205 S0 T0 ; sets the minimum extruding and travel feed rate, mm/sec
;TYPE:Custom
M862.3 P "MINI" ; printer model check
G90 ; use absolute coordinates
M83 ; extruder relative mode
M104 S170 ; set extruder temp for bed leveling
M140 S100 ; set bed temp
M109 R170 ; wait for bed leveling temp
M190 S100 ; wait for bed temp
M204 T1250 ; set travel acceleration
G28 ; home all without mesh bed level
G29 ; mesh bed leveling 
M204 T2500 ; restore travel acceleration
M104 S260 ; set extruder temp
G92 E0
G1 Y-2 X179 F2400
G1 Z3 F720
M109 S260 ; wait for extruder temp

; intro line
M73 P1 R7
G1 X170 F1000
G1 Z0.2 F720
G1 X110 E8 F900
G1 X40 E10 F700
G92 E0

M221 S95 ; set flow
G21 ; set units to millimeters
G90 ; use absolute coordinates
M83 ; use relative distances for extrusion
M900 K0.2 ; Filament gcode

M107
;LAYER_CHANGE
;Z:0.2
;HEIGHT:0.2
;BEFORE_LAYER_CHANGE
G92 E0.0
;0.2


M73 P2 R7
G1 E-2.7 F4200
M73 P3 R6
G1 Z.2 F720
;AFTER_LAYER_CHANGE
;0.2
G1 Z.4
G1 X39.06 Y72.817 F9000
G1 Z.2 F720
G1 E2.7 F2400
M204 P600
;TYPE:Skirt/Brim
;WIDTH:0.42
G1 F1200
G1 X40 Y72.623 E.03009
G1 X140 Y72.623 E3.13543
G1 X141.307 Y73.015 E.04278
M73 P4 R6
G1 X142.183 Y74.06 E.04275
G1 X142.377 Y75 E.03009
G1 X142.377 Y105 E.94063
M73 P5 R6
G1 X141.985 Y106.307 E.04278
G1 X140.94 Y107.183 E.04275
G1 X140 Y107.377 E.03009
G1 X40 Y107.377 E3.13543
G1 X38.693 Y106.985 E.04278
M73 P6 R6
G1 X37.817 Y105.94 E.04275
G1 X37.623 Y105 E.03009
G1 X37.623 Y75 E.94063
G1 X38.015 Y73.693 E.04278
G1 X39.014 Y72.855 E.04088
M204 P1000
; printing object one_layer_100x30.stl id:0 copy 0
G1 E-2.7 F4200
G1 Z.4 F720
G1 X139.213 Y104.213 F9000
M73 P7 R6
G1 Z.2 F720
G1 E2.7 F2400
M204 P600
;TYPE:Perimeter
;WIDTH:0.419999
G1 F1200
G1 X40.787 Y104.213 E3.08607
G1 X40.787 Y75.787 E.89128
M73 P8 R6
G1 X139.213 Y75.787 E3.08607
G1 X139.213 Y104.153 E.88939
M204 P1000
M73 P9 R6
G1 X139.59 Y104.59 F9000
M204 P600
;TYPE:External perimeter
M73 P10 R6
G1 F1200
G1 X40.41 Y104.59 E3.10971
G1 X40.41 Y75.41 E.91492
M73 P11 R6
G1 X139.59 Y75.41 E3.10971
G1 X139.59 Y104.53 E.91304
M204 P1000
M73 P12 R6
G1 X139.192 Y104.552 F9000
M73 P13 R6
G1 E-2.7 F4200
G1 Z.4 F720
G1 X139.043 Y76.722 F9000
G1 Z.2 F720
G1 E2.7 F2400
M204 P600
;TYPE:Solid infill
;WIDTH:0.421187
G1 F1200
G1 X138.448 Y76.126 E.02649
G1 X137.913 Y76.126 E.01683
G1 X138.874 Y77.087 E.04275
G1 X138.874 Y77.622 E.01683
G1 X137.378 Y76.126 E.06654
G1 X136.843 Y76.126 E.01683
G1 X138.874 Y78.157 E.09034
G1 X138.874 Y78.692 E.01683
G1 X136.308 Y76.126 E.11414
G1 X135.773 Y76.126 E.01683
G1 X138.874 Y79.227 E.13794
G1 X138.874 Y79.762 E.01683
G1 X135.238 Y76.126 E.16173
G1 X134.703 Y76.126 E.01683
G1 X138.874 Y80.297 E.18553
G1 X138.874 Y80.831 E.0168
G1 X134.169 Y76.126 E.20928
G1 X133.634 Y76.126 E.01683
G1 X138.874 Y81.366 E.23308
G1 X138.874 Y81.901 E.01683
G1 X133.099 Y76.126 E.25688
G1 X132.564 Y76.126 E.01683
G1 X138.874 Y82.436 E.28068
G1 X138.874 Y82.971 E.01683
M73 P14 R6
G1 X132.029 Y76.126 E.30447
G1 X131.494 Y76.126 E.01683
G1 X138.874 Y83.506 E.32827
G1 X138.874 Y84.041 E.01683
G1 X130.959 Y76.126 E.35207
G1 X130.424 Y76.126 E.01683
G1 X138.874 Y84.576 E.37587
G1 X138.874 Y85.111 E.01683
G1 X129.889 Y76.126 E.39966
G1 X129.354 Y76.126 E.01683
G1 X138.874 Y85.646 E.42346
G1 X138.874 Y86.181 E.01683
G1 X128.819 Y76.126 E.44726
G1 X128.284 Y76.126 E.01683
M73 P15 R6
G1 X138.874 Y86.716 E.47106
G1 X138.874 Y87.251 E.01683
G1 X127.749 Y76.126 E.49485
G1 X127.214 Y76.126 E.01683
G1 X138.874 Y87.786 E.51865
G1 X138.874 Y88.321 E.01683
G1 X126.679 Y76.126 E.54245
G1 X126.144 Y76.126 E.01683
G1 X138.874 Y88.856 E.56625
G1 X138.874 Y89.391 E.01683
M73 P16 R6
G1 X125.609 Y76.126 E.59004
G1 X125.074 Y76.126 E.01683
G1 X138.874 Y89.926 E.61384
G1 X138.874 Y90.461 E.01683
G1 X124.539 Y76.126 E.63764
G1 X124.004 Y76.126 E.01683
M73 P16 R5
G1 X138.874 Y90.996 E.66144
G1 X138.874 Y91.53 E.0168
M73 P17 R5
G1 X123.47 Y76.126 E.68519
G1 X122.935 Y76.126 E.01683
G1 X138.874 Y92.065 E.70899
G1 X138.874 Y92.6 E.01683
G1 X122.4 Y76.126 E.73278
G1 X121.865 Y76.126 E.01683
G1 X138.874 Y93.135 E.75658
G1 X138.874 Y93.67 E.01683
M73 P18 R5
G1 X121.33 Y76.126 E.78038
G1 X120.795 Y76.126 E.01683
G1 X138.874 Y94.205 E.80418
G1 X138.874 Y94.74 E.01683
G1 X120.26 Y76.126 E.82797
G1 X119.725 Y76.126 E.01683
M73 P19 R5
G1 X138.874 Y95.275 E.85177
G1 X138.874 Y95.81 E.01683
G1 X119.19 Y76.126 E.87557
G1 X118.655 Y76.126 E.01683
G1 X138.874 Y96.345 E.89937
G1 X138.874 Y96.88 E.01683
M73 P20 R5
G1 X118.12 Y76.126 E.92316
G1 X117.585 Y76.126 E.01683
G1 X138.874 Y97.415 E.94696
G1 X138.874 Y97.95 E.01683
G1 X117.05 Y76.126 E.97076
G1 X116.515 Y76.126 E.01683
M73 P21 R5
G1 X138.874 Y98.485 E.99456
G1 X138.874 Y99.02 E.01683
G1 X115.98 Y76.126 E1.01835
G1 X115.445 Y76.126 E.01683
G1 X138.874 Y99.555 E1.04215
G1 X138.874 Y100.09 E.01683
M73 P22 R5
G1 X114.91 Y76.126 E1.06595
G1 X114.375 Y76.126 E.01683
G1 X138.874 Y100.625 E1.08975
G1 X138.874 Y101.16 E.01683
M73 P23 R5
G1 X113.84 Y76.126 E1.11354
G1 X113.305 Y76.126 E.01683
G1 X138.874 Y101.695 E1.13734
G1 X138.874 Y102.229 E.0168
G1 X112.771 Y76.126 E1.1611
G1 X112.236 Y76.126 E.01683
M73 P24 R5
G1 X138.874 Y102.764 E1.18489
G1 X138.874 Y103.299 E.01683
G1 X111.701 Y76.126 E1.20869
G1 X111.166 Y76.126 E.01683
M73 P25 R5
G1 X138.874 Y103.834 E1.23249
G1 X138.874 Y103.874 E.00126
G1 X138.378 Y103.874 E.0156
G1 X110.631 Y76.126 E1.23424
G1 X110.096 Y76.126 E.01683
M73 P26 R5
G1 X137.843 Y103.874 E1.23424
G1 X137.308 Y103.874 E.01683
G1 X109.561 Y76.126 E1.23424
G1 X109.026 Y76.126 E.01683
M73 P27 R5
G1 X136.773 Y103.874 E1.23424
G1 X136.238 Y103.874 E.01683
G1 X108.491 Y76.126 E1.23424
G1 X107.956 Y76.126 E.01683
M73 P28 R5
G1 X135.703 Y103.874 E1.23424
G1 X135.168 Y103.874 E.01683
G1 X107.421 Y76.126 E1.23424
G1 X106.886 Y76.126 E.01683
M73 P29 R5
G1 X134.633 Y103.874 E1.23424
G1 X134.098 Y103.874 E.01683
G1 X106.351 Y76.126 E1.23424
G1 X105.816 Y76.126 E.01683
G1 X133.563 Y103.874 E1.23424
G1 X133.028 Y103.874 E.01683
M73 P30 R5
G1 X105.281 Y76.126 E1.23424
G1 X104.746 Y76.126 E.01683
M73 P30 R4
G1 X132.493 Y103.874 E1.23424
G1 X131.958 Y103.874 E.01683
M73 P31 R4
G1 X104.211 Y76.126 E1.23424
G1 X103.676 Y76.126 E.01683
G1 X131.423 Y103.874 E1.23424
G1 X130.889 Y103.874 E.0168
M73 P32 R4
G1 X103.141 Y76.126 E1.23427
G1 X102.606 Y76.126 E.01683
G1 X130.354 Y103.874 E1.23427
G1 X129.819 Y103.874 E.01683
M73 P33 R4
G1 X102.072 Y76.126 E1.23424
G1 X101.537 Y76.126 E.01683
G1 X129.284 Y103.874 E1.23424
G1 X128.749 Y103.874 E.01683
M73 P34 R4
G1 X101.002 Y76.126 E1.23424
G1 X100.467 Y76.126 E.01683
G1 X128.214 Y103.874 E1.23424
G1 X127.679 Y103.874 E.01683
M73 P35 R4
G1 X99.932 Y76.126 E1.23424
G1 X99.397 Y76.126 E.01683
G1 X127.144 Y103.874 E1.23424
G1 X126.609 Y103.874 E.01683
M73 P36 R4
G1 X98.862 Y76.126 E1.23424
G1 X98.327 Y76.126 E.01683
G1 X126.074 Y103.874 E1.23424
G1 X125.539 Y103.874 E.01683
G1 X97.792 Y76.126 E1.23424
G1 X97.257 Y76.126 E.01683
M73 P37 R4
G1 X125.004 Y103.874 E1.23424
G1 X124.469 Y103.874 E.01683
G1 X96.722 Y76.126 E1.23424
G1 X96.187 Y76.126 E.01683
M73 P38 R4
G1 X123.934 Y103.874 E1.23424
G1 X123.399 Y103.874 E.01683
G1 X95.652 Y76.126 E1.23424
G1 X95.117 Y76.126 E.01683
M73 P39 R4
G1 X122.864 Y103.874 E1.23424
G1 X122.329 Y103.874 E.01683
G1 X94.582 Y76.126 E1.23424
G1 X94.047 Y76.126 E.01683
M73 P40 R4
G1 X121.794 Y103.874 E1.23424
G1 X121.259 Y103.874 E.01683
G1 X93.512 Y76.126 E1.23424
G1 X92.977 Y76.126 E.01683
M73 P41 R4
G1 X120.724 Y103.874 E1.23424
G1 X120.19 Y103.874 E.0168
G1 X92.442 Y76.126 E1.23427
G1 X91.907 Y76.126 E.01683
M73 P42 R4
G1 X119.655 Y103.874 E1.23427
G1 X119.12 Y103.874 E.01683
G1 X91.373 Y76.126 E1.23424
G1 X90.838 Y76.126 E.01683
M73 P43 R4
G1 X118.585 Y103.874 E1.23424
G1 X118.05 Y103.874 E.01683
G1 X90.303 Y76.126 E1.23424
G1 X89.768 Y76.126 E.01683
G1 X117.515 Y103.874 E1.23424
G1 X116.98 Y103.874 E.01683
M73 P44 R4
G1 X89.233 Y76.126 E1.23424
G1 X88.698 Y76.126 E.01683
M73 P44 R3
G1 X116.445 Y103.874 E1.23424
G1 X115.91 Y103.874 E.01683
M73 P45 R3
G1 X88.163 Y76.126 E1.23424
G1 X87.628 Y76.126 E.01683
G1 X115.375 Y103.874 E1.23424
G1 X114.84 Y103.874 E.01683
M73 P46 R3
G1 X87.093 Y76.126 E1.23424
G1 X86.558 Y76.126 E.01683
G1 X114.305 Y103.874 E1.23424
G1 X113.77 Y103.874 E.01683
M73 P47 R3
G1 X86.023 Y76.126 E1.23424
G1 X85.488 Y76.126 E.01683
G1 X113.235 Y103.874 E1.23424
G1 X112.7 Y103.874 E.01683
M73 P48 R3
G1 X84.953 Y76.126 E1.23424
G1 X84.418 Y76.126 E.01683
G1 X112.165 Y103.874 E1.23424
G1 X111.63 Y103.874 E.01683
M73 P49 R3
G1 X83.883 Y76.126 E1.23424
G1 X83.348 Y76.126 E.01683
G1 X111.095 Y103.874 E1.23424
G1 X110.56 Y103.874 E.01683
M73 P50 R3
G1 X82.813 Y76.126 E1.23424
G1 X82.278 Y76.126 E.01683
G1 X110.025 Y103.874 E1.23424
G1 X109.491 Y103.874 E.0168
G1 X81.743 Y76.126 E1.23427
G1 X81.208 Y76.126 E.01683
M73 P51 R3
G1 X108.956 Y103.874 E1.23427
G1 X108.421 Y103.874 E.01683
G1 X80.674 Y76.126 E1.23424
G1 X80.139 Y76.126 E.01683
M73 P52 R3
G1 X107.886 Y103.874 E1.23424
G1 X107.351 Y103.874 E.01683
G1 X79.604 Y76.126 E1.23424
G1 X79.069 Y76.126 E.01683
M73 P53 R3
G1 X106.816 Y103.874 E1.23424
G1 X106.281 Y103.874 E.01683
G1 X78.534 Y76.126 E1.23424
G1 X77.999 Y76.126 E.01683
M73 P54 R3
G1 X105.746 Y103.874 E1.23424
G1 X105.211 Y103.874 E.01683
G1 X77.464 Y76.126 E1.23424
G1 X76.929 Y76.126 E.01683
M73 P55 R3
G1 X104.676 Y103.874 E1.23424
G1 X104.141 Y103.874 E.01683
G1 X76.394 Y76.126 E1.23424
G1 X75.859 Y76.126 E.01683
M73 P56 R3
G1 X103.606 Y103.874 E1.23424
G1 X103.071 Y103.874 E.01683
G1 X75.324 Y76.126 E1.23424
G1 X74.789 Y76.126 E.01683
G1 X102.536 Y103.874 E1.23424
G1 X102.001 Y103.874 E.01683
M73 P57 R3
G1 X74.254 Y76.126 E1.23424
G1 X73.719 Y76.126 E.01683
G1 X101.466 Y103.874 E1.23424
G1 X100.931 Y103.874 E.01683
M73 P58 R2
G1 X73.184 Y76.126 E1.23424
G1 X72.649 Y76.126 E.01683
G1 X100.396 Y103.874 E1.23424
G1 X99.861 Y103.874 E.01683
M73 P59 R2
G1 X72.114 Y76.126 E1.23424
G1 X71.579 Y76.126 E.01683
G1 X99.326 Y103.874 E1.23424
G1 X98.791 Y103.874 E.01683
M73 P60 R2
G1 X71.044 Y76.126 E1.23424
G1 X70.509 Y76.126 E.01683
G1 X98.257 Y103.874 E1.23427
G1 X97.722 Y103.874 E.01683
M73 P61 R2
G1 X69.974 Y76.126 E1.23427
G1 X69.44 Y76.126 E.0168
G1 X97.187 Y103.874 E1.23424
G1 X96.652 Y103.874 E.01683
M73 P62 R2
G1 X68.905 Y76.126 E1.23424
G1 X68.37 Y76.126 E.01683
G1 X96.117 Y103.874 E1.23424
G1 X95.582 Y103.874 E.01683
M73 P63 R2
G1 X67.835 Y76.126 E1.23424
G1 X67.3 Y76.126 E.01683
G1 X95.047 Y103.874 E1.23424
G1 X94.512 Y103.874 E.01683
G1 X66.765 Y76.126 E1.23424
G1 X66.23 Y76.126 E.01683
M73 P64 R2
G1 X93.977 Y103.874 E1.23424
G1 X93.442 Y103.874 E.01683
G1 X65.695 Y76.126 E1.23424
G1 X65.16 Y76.126 E.01683
M73 P65 R2
G1 X92.907 Y103.874 E1.23424
G1 X92.372 Y103.874 E.01683
G1 X64.625 Y76.126 E1.23424
G1 X64.09 Y76.126 E.01683
M73 P66 R2
G1 X91.837 Y103.874 E1.23424
G1 X91.302 Y103.874 E.01683
G1 X63.555 Y76.126 E1.23424
G1 X63.02 Y76.126 E.01683
M73 P67 R2
G1 X90.767 Y103.874 E1.23424
G1 X90.232 Y103.874 E.01683
G1 X62.485 Y76.126 E1.23424
G1 X61.95 Y76.126 E.01683
M73 P68 R2
G1 X89.697 Y103.874 E1.23424
G1 X89.162 Y103.874 E.01683
G1 X61.415 Y76.126 E1.23424
G1 X60.88 Y76.126 E.01683
M73 P69 R2
G1 X88.627 Y103.874 E1.23424
G1 X88.092 Y103.874 E.01683
G1 X60.345 Y76.126 E1.23424
G1 X59.81 Y76.126 E.01683
M73 P70 R2
G1 X87.558 Y103.874 E1.23427
G1 X87.023 Y103.874 E.01683
G1 X59.275 Y76.126 E1.23427
G1 X58.741 Y76.126 E.0168
G1 X86.488 Y103.874 E1.23424
G1 X85.953 Y103.874 E.01683
M73 P71 R2
G1 X58.206 Y76.126 E1.23424
G1 X57.671 Y76.126 E.01683
G1 X85.418 Y103.874 E1.23424
G1 X84.883 Y103.874 E.01683
M73 P72 R1
G1 X57.136 Y76.126 E1.23424
G1 X56.601 Y76.126 E.01683
G1 X84.348 Y103.874 E1.23424
G1 X83.813 Y103.874 E.01683
M73 P73 R1
G1 X56.066 Y76.126 E1.23424
G1 X55.531 Y76.126 E.01683
G1 X83.278 Y103.874 E1.23424
G1 X82.743 Y103.874 E.01683
M73 P74 R1
G1 X54.996 Y76.126 E1.23424
G1 X54.461 Y76.126 E.01683
G1 X82.208 Y103.874 E1.23424
G1 X81.673 Y103.874 E.01683
M73 P75 R1
G1 X53.926 Y76.126 E1.23424
G1 X53.391 Y76.126 E.01683
G1 X81.138 Y103.874 E1.23424
G1 X80.603 Y103.874 E.01683
M73 P76 R1
G1 X52.856 Y76.126 E1.23424
G1 X52.321 Y76.126 E.01683
G1 X80.068 Y103.874 E1.23424
G1 X79.533 Y103.874 E.01683
M73 P77 R1
G1 X51.786 Y76.126 E1.23424
G1 X51.251 Y76.126 E.01683
G1 X78.998 Y103.874 E1.23424
G1 X78.463 Y103.874 E.01683
G1 X50.716 Y76.126 E1.23424
G1 X50.181 Y76.126 E.01683
M73 P78 R1
G1 X77.928 Y103.874 E1.23424
G1 X77.393 Y103.874 E.01683
G1 X49.646 Y76.126 E1.23424
G1 X49.111 Y76.126 E.01683
M73 P79 R1
G1 X76.859 Y103.874 E1.23427
G1 X76.324 Y103.874 E.01683
G1 X48.576 Y76.126 E1.23427
G1 X48.042 Y76.126 E.0168
M73 P80 R1
G1 X75.789 Y103.874 E1.23424
G1 X75.254 Y103.874 E.01683
G1 X47.507 Y76.126 E1.23424
G1 X46.972 Y76.126 E.01683
M73 P81 R1
G1 X74.719 Y103.874 E1.23424
G1 X74.184 Y103.874 E.01683
G1 X46.437 Y76.126 E1.23424
G1 X45.902 Y76.126 E.01683
M73 P82 R1
G1 X73.649 Y103.874 E1.23424
G1 X73.114 Y103.874 E.01683
G1 X45.367 Y76.126 E1.23424
G1 X44.832 Y76.126 E.01683
M73 P83 R1
G1 X72.579 Y103.874 E1.23424
G1 X72.044 Y103.874 E.01683
G1 X44.297 Y76.126 E1.23424
G1 X43.762 Y76.126 E.01683
G1 X71.509 Y103.874 E1.23424
G1 X70.974 Y103.874 E.01683
M73 P84 R1
G1 X43.227 Y76.126 E1.23424
G1 X42.692 Y76.126 E.01683
G1 X70.439 Y103.874 E1.23424
G1 X69.904 Y103.874 E.01683
M73 P85 R1
G1 X42.157 Y76.126 E1.23424
G1 X41.622 Y76.126 E.01683
G1 X69.369 Y103.874 E1.23424
G1 X68.834 Y103.874 E.01683
M73 P86 R0
G1 X41.126 Y76.166 E1.23249
G1 X41.126 Y76.701 E.01683
G1 X68.299 Y103.874 E1.20869
G1 X67.764 Y103.874 E.01683
M73 P87 R0
G1 X41.126 Y77.236 E1.18489
G1 X41.126 Y77.771 E.01683
G1 X67.229 Y103.874 E1.1611
G1 X66.694 Y103.874 E.01683
M73 P88 R0
G1 X41.126 Y78.306 E1.1373
G1 X41.126 Y78.84 E.0168
G1 X66.16 Y103.874 E1.11354
G1 X65.625 Y103.874 E.01683
G1 X41.126 Y79.375 E1.08975
G1 X41.126 Y79.91 E.01683
M73 P89 R0
G1 X65.09 Y103.874 E1.06595
G1 X64.555 Y103.874 E.01683
G1 X41.126 Y80.445 E1.04215
G1 X41.126 Y80.98 E.01683
M73 P90 R0
G1 X64.02 Y103.874 E1.01835
G1 X63.485 Y103.874 E.01683
G1 X41.126 Y81.515 E.99456
G1 X41.126 Y82.05 E.01683
G1 X62.95 Y103.874 E.97076
G1 X62.415 Y103.874 E.01683
M73 P91 R0
G1 X41.126 Y82.585 E.94696
G1 X41.126 Y83.12 E.01683
G1 X61.88 Y103.874 E.92316
G1 X61.345 Y103.874 E.01683
M73 P92 R0
G1 X41.126 Y83.655 E.89937
G1 X41.126 Y84.19 E.01683
G1 X60.81 Y103.874 E.87557
G1 X60.275 Y103.874 E.01683
G1 X41.126 Y84.725 E.85177
G1 X41.126 Y85.26 E.01683
M73 P93 R0
G1 X59.74 Y103.874 E.82797
G1 X59.205 Y103.874 E.01683
G1 X41.126 Y85.795 E.80418
G1 X41.126 Y86.33 E.01683
G1 X58.67 Y103.874 E.78038
G1 X58.135 Y103.874 E.01683
G1 X41.126 Y86.865 E.75658
G1 X41.126 Y87.4 E.01683
M73 P94 R0
G1 X57.6 Y103.874 E.73278
G1 X57.065 Y103.874 E.01683
G1 X41.126 Y87.935 E.70899
G1 X41.126 Y88.47 E.01683
G1 X56.53 Y103.874 E.68519
G1 X55.995 Y103.874 E.01683
M73 P95 R0
G1 X41.126 Y89.005 E.66139
G1 X41.126 Y89.539 E.0168
G1 X55.461 Y103.874 E.63764
G1 X54.926 Y103.874 E.01683
G1 X41.126 Y90.074 E.61384
G1 X41.126 Y90.609 E.01683
G1 X54.391 Y103.874 E.59004
G1 X53.856 Y103.874 E.01683
M73 P96 R0
G1 X41.126 Y91.144 E.56625
G1 X41.126 Y91.679 E.01683
G1 X53.321 Y103.874 E.54245
G1 X52.786 Y103.874 E.01683
G1 X41.126 Y92.214 E.51865
G1 X41.126 Y92.749 E.01683
G1 X52.251 Y103.874 E.49485
G1 X51.716 Y103.874 E.01683
G1 X41.126 Y93.284 E.47106
G1 X41.126 Y93.819 E.01683
M73 P97 R0
G1 X51.181 Y103.874 E.44726
G1 X50.646 Y103.874 E.01683
G1 X41.126 Y94.354 E.42346
